; G-Code generated by Simplify3D(R) Version 3.0.1
; Jan 28, 2016 at 7:26:22 AM
; Settings Summary
;   processName,Process1
;   applyToModels,LFS_Elephant
;   profileName,rcl-I4 BED LEVEL TEST!!!!! (modified)
;   profileVersion,2016-01-27 18:48:34
;   baseProfile,Default
;   printMaterial,
;   printQuality,
;   printExtruders,
;   extruderName,Extruder 1
;   extruderToolheadNumber,0
;   extruderDiameter,0.4
;   extruderAutoWidth,0
;   extruderWidth,0.5
;   extrusionMultiplier,1
;   extruderUseRetract,1
;   extruderRetractionDistance,2
;   extruderExtraRestartDistance,0
;   extruderRetractionZLift,0
;   extruderRetractionSpeed,4200
;   extruderUseCoasting,0
;   extruderCoastingDistance,0.6
;   extruderUseWipe,0
;   extruderWipeDistance,5
;   primaryExtruder,0
;   layerHeight,0.22
;   topSolidLayers,3
;   bottomSolidLayers,3
;   perimeterOutlines,2
;   printPerimetersInsideOut,1
;   startPointOption,2
;   startPointOriginX,0
;   startPointOriginY,0
;   startPointOriginZ,300
;   sequentialIslands,0
;   spiralVaseMode,0
;   firstLayerHeightPercentage,70
;   firstLayerWidthPercentage,120
;   firstLayerUnderspeed,0.5
;   useRaft,0
;   raftExtruder,0
;   raftLayers,1
;   raftOffset,3
;   raftSeparationDistance,0.14
;   raftInfill,85
;   disableRaftBaseLayers,1
;   useSkirt,1
;   skirtExtruder,0
;   skirtLayers,1
;   skirtOutlines,2
;   skirtOffset,6
;   usePrimePillar,0
;   primePillarExtruder,999
;   primePillarWidth,12
;   primePillarLocation,7
;   primePillarSpeedMultiplier,1
;   useOozeShield,0
;   oozeShieldExtruder,0
;   oozeShieldOffset,2
;   oozeShieldOutlines,1
;   oozeShieldSidewallShape,1
;   oozeShieldSidewallAngle,30
;   oozeShieldSpeedMultiplier,1
;   infillExtruder,0
;   internalInfillPattern,Rectilinear
;   externalInfillPattern,Rectilinear
;   infillPercentage,5
;   outlineOverlapPercentage,15
;   infillExtrusionWidthPercentage,120
;   minInfillLength,5
;   infillLayerInterval,1
;   infillAngles,45,-45
;   overlapInfillAngles,0
;   generateSupport,0
;   supportExtruder,0
;   supportInfillPercentage,15
;   supportExtraInflation,0
;   denseSupportLayers,1
;   denseSupportInfillPercentage,70
;   supportLayerInterval,1
;   supportHorizontalPartOffset,0.7
;   supportUpperSeparationLayers,2
;   supportLowerSeparationLayers,1
;   supportType,0
;   supportGridSpacing,2
;   maxOverhangAngle,50
;   supportAngles,0
;   temperatureName,Extruder 1 Temperature,bed
;   temperatureNumber,0,1
;   temperatureSetpointCount,1,1
;   temperatureSetpointLayers,1,1
;   temperatureSetpointTemperatures,220,0
;   temperatureStabilizeAtStartup,1,1
;   temperatureHeatedBed,0,1
;   temperatureRelayBetweenLayers,0,0
;   temperatureRelayBetweenLoops,0,0
;   fanLayers,1
;   fanSpeeds,0
;   blipFanToFullPower,1
;   adjustSpeedForCooling,1
;   minSpeedLayerTime,20
;   minCoolingSpeedSlowdown,40
;   increaseFanForCooling,0
;   minFanLayerTime,45
;   maxCoolingFanSpeed,100
;   increaseFanForBridging,1
;   bridgingFanSpeed,100
;   use5D,1
;   relativeEdistances,0
;   allowEaxisZeroing,1
;   independentExtruderAxes,0
;   includeM10123,0
;   stickySupport,1
;   applyToolheadOffsets,1
;   gcodeXoffset,0
;   gcodeYoffset,0
;   gcodeZoffset,0
;   overrideMachineDefinition,1
;   machineTypeOverride,0
;   strokeXoverride,300
;   strokeYoverride,200
;   strokeZoverride,300
;   originOffsetXoverride,0
;   originOffsetYoverride,0
;   originOffsetZoverride,0
;   homeXdirOverride,-1
;   homeYdirOverride,-1
;   homeZdirOverride,-1
;   flipXoverride,1
;   flipYoverride,-1
;   flipZoverride,1
;   toolheadOffsets,0,0|18.4,0|0,0|0,0|0,0|0,0
;   overrideFirmwareConfiguration,1
;   firmwareTypeOverride,RepRap (Marlin/Repetier/Sprinter)
;   GPXconfigOverride,r2
;   baudRateOverride,115200
;   overridePrinterModels,0
;   printerModelsOverride
;   startingGcode,G21 ; metric values,G91; INCREMENTAL,G0 Z10,G90 ; absolute positioning,G28 X0 Y0 ; move X/Y to min endstops,M204 S300,G29,G91; INCREMENTAL,G0 X-20 Y-20,M204 S3000,G90 ; Absolute,G1 Z8.0 F50 ; move the platform down 8mm,G92 E0 ; zero the extruded length,G1 F200 E5 ; extrude 3mm of feed stock,G92 E0 ; zero the extruded length again,
;   layerChangeGcode,
;   retractionGcode,
;   toolChangeGcode,
;   endingGcode,M104 S0 ; extruder heater off,M140 S0 ; heated bed heater off (if you have it),G91 ; relative positioning,G1 E-1 F300 ; retract filament,G1 Z+0.5 E-5 X-20 Y-20 F70 ; ,G90 ; absolute positioning,G28 X0; Home the X,G1 Y180  F70; Kick out bed,M30 ; end program
;   createX3G,0
;   celebration,0
;   celebrationSong,Random Song
;   createMB5G,0
;   postProcessing,
;   defaultSpeed,3600
;   outlineUnderspeed,0.5
;   solidInfillUnderspeed,0.85
;   supportUnderspeed,0.6
;   rapidXYspeed,7200
;   rapidZspeed,150
;   minBridgingArea,50
;   bridgingExtraInflation,0
;   bridgingExtrusionMultiplier,0.95
;   bridgingSpeedMultiplier,1.1
;   filamentDiameter,1.75
;   filamentPricePerKg,46
;   filamentDensity,1.25
;   useMinPrintHeight,0
;   minPrintHeight,0
;   useMaxPrintHeight,0
;   maxPrintHeight,9
;   useDiaphragm,1
;   diaphragmLayerInterval,50
;   robustSlicing,1
;   mergeAllIntoSolid,0
;   onlyRetractWhenCrossingOutline,1
;   retractBetweenLayers,1
;   useRetractionMinTravel,0
;   retractionMinTravel,3
;   retractWhileWiping,0
;   onlyWipeOutlines,1
;   avoidCrossingOutline,0
;   maxMovementDetourFactor,3
;   toolChangeRetractionDistance,5
;   toolChangeExtraRestartDistance,0
;   toolChangeRetractionSpeed,3600
;   allowThinWallGapFill,1
;   thinWallAllowedOverlapPercentage,20
;   horizontalSizeCompensation,0
G90
M82
M106 S0
M140 S0
M104 S220 T0
M109 S220 T0
G21 ; metric values
G91; INCREMENTAL
G0 Z10
G90 ; absolute positioning
G28 X0 Y0 ; move X/Y to min endstops
M204 S300
G29
G91; INCREMENTAL
G0 X-20 Y-20
M204 S3000
G90 ; Absolute
G1 Z8.0 F50 ; move the platform down 8mm
G92 E0 ; zero the extruded length
G1 F200 E5 ; extrude 3mm of feed stock
G92 E0 ; zero the extruded length again
G92 E0
G1 E-2.0000 F4200
G1 Z0.154 F150
; layer 1, Z = 0.154
T0
; tool H0.220 W0.600
; skirt
G1 X101.864 Y91.234 F7200
G1 E0.0000 F1260
G92 E0
G1 X106.624 Y90.732 E0.2626 F1800
G1 X106.628 Y90.732 E0.2629
G1 X106.708 Y90.725 E0.2673
G1 X106.712 Y90.724 E0.2675
G1 X109.192 Y90.525 E0.4040
G1 X109.334 Y90.461 E0.4126
G1 X110.956 Y90.384 E0.5017
G1 X112.526 Y90.258 E0.5882
G1 X112.598 Y90.228 E0.5925
G1 X113.723 Y90.223 E0.6542
G1 X113.793 Y89.857 E0.6746
G1 X113.802 Y89.821 E0.6767
G1 X114.063 Y88.948 E0.7267
G1 X114.077 Y88.909 E0.7289
G1 X114.344 Y88.275 E0.7667
G1 X114.361 Y88.239 E0.7689
G1 X114.809 Y87.430 E0.8196
G1 X114.831 Y87.396 E0.8218
G1 X115.230 Y86.830 E0.8598
G1 X115.255 Y86.798 E0.8621
G1 X115.878 Y86.092 E0.9137
G1 X115.909 Y86.061 E0.9161
G1 X116.455 Y85.570 E0.9564
G1 X116.488 Y85.543 E0.9588
G1 X117.257 Y84.997 E1.0105
G1 X117.292 Y84.975 E1.0128
G1 X117.909 Y84.632 E1.0515
G1 X117.946 Y84.614 E1.0538
G1 X118.805 Y84.254 E1.1049
G1 X118.845 Y84.240 E1.1072
G1 X119.531 Y84.039 E1.1465
G1 X119.572 Y84.030 E1.1488
G1 X120.498 Y83.869 E1.2004
G1 X120.540 Y83.864 E1.2027
G1 X121.262 Y83.821 E1.2424
G1 X121.305 Y83.821 E1.2447
G1 X122.251 Y83.872 E1.2967
G1 X122.293 Y83.877 E1.2991
G1 X123.014 Y84.000 E1.3392
G1 X123.056 Y84.010 E1.3416
G1 X124.495 Y84.429 E1.4238
G1 X124.506 Y84.432 E1.4244
G1 X124.687 Y84.491 E1.4349
G1 X124.698 Y84.494 E1.4355
G1 X126.738 Y85.224 E1.5544
G1 X126.752 Y85.229 E1.5552
G1 X126.978 Y85.320 E1.5686
G1 X126.992 Y85.325 E1.5694
G1 X127.243 Y85.437 E1.5845
G1 X130.782 Y81.835 E1.8616
G1 X131.053 Y81.719 E1.8778
G1 X135.163 Y81.647 E2.1034
G1 X135.226 Y81.621 E2.1071
G1 X137.554 Y81.605 E2.2349
G1 X139.411 Y81.572 E2.3368
G1 X139.461 Y81.592 E2.3397
G1 X142.435 Y81.572 E2.5030
G1 X142.495 Y81.547 E2.5065
G1 X144.504 Y81.558 E2.6168
G1 X146.675 Y81.543 E2.7359
G1 X146.736 Y81.568 E2.7395
G1 X150.955 Y81.585 E2.9711
G1 X151.034 Y81.593 E2.9755
G1 X152.351 Y81.880 E3.0494
G1 X152.426 Y81.905 E3.0538
G1 X153.893 Y82.570 E3.1421
G1 X153.923 Y82.585 E3.1440
G1 X154.430 Y82.873 E3.1760
G1 X154.459 Y82.891 E3.1779
G1 X155.199 Y83.407 E3.2274
G1 X155.223 Y83.425 E3.2290
G1 X155.617 Y83.749 E3.2570
G1 X155.639 Y83.769 E3.2586
G1 X156.326 Y84.431 E3.3110
G1 X156.349 Y84.455 E3.3128
G1 X156.714 Y84.875 E3.3434
G1 X156.734 Y84.901 E3.3452
G1 X157.356 Y85.757 E3.4032
G1 X157.376 Y85.788 E3.4053
G1 X157.693 Y86.328 E3.4396
G1 X157.710 Y86.360 E3.4416
G1 X158.197 Y87.417 E3.5055
G1 X158.209 Y87.445 E3.5071
G1 X158.386 Y87.927 E3.5353
G1 X158.395 Y87.955 E3.5370
G1 X158.525 Y88.422 E3.5636
G1 X163.586 Y88.700 E3.8417
G1 X163.588 Y88.700 E3.8418
G1 X163.623 Y88.702 E3.8438
G1 X163.625 Y88.703 E3.8439
G1 X166.807 Y88.912 E4.0189
G1 X166.809 Y88.892 E4.0200
G1 X166.814 Y88.864 E4.0216
G1 X166.910 Y88.387 E4.0483
G1 X166.916 Y88.359 E4.0498
G1 X167.272 Y87.095 E4.1219
G1 X167.282 Y87.065 E4.1236
G1 X167.465 Y86.572 E4.1525
G1 X167.477 Y86.544 E4.1542
G1 X167.997 Y85.437 E4.2213
G1 X168.012 Y85.409 E4.2230
G1 X168.271 Y84.957 E4.2517
G1 X168.288 Y84.931 E4.2533
G1 X169.034 Y83.846 E4.3256
G1 X169.050 Y83.825 E4.3270
G1 X169.328 Y83.476 E4.3515
G1 X169.345 Y83.457 E4.3529
G1 X169.901 Y82.850 E4.3981
G1 X169.913 Y82.838 E4.3990
G1 X170.120 Y82.633 E4.4150
G1 X170.132 Y82.621 E4.4160
G1 X170.714 Y82.093 E4.4591
G1 X170.734 Y82.076 E4.4605
G1 X171.071 Y81.810 E4.4841
G1 X171.091 Y81.795 E4.4855
G1 X172.076 Y81.118 E4.5511
G1 X172.097 Y81.105 E4.5524
G1 X172.454 Y80.893 E4.5752
G1 X172.475 Y80.881 E4.5765
G1 X173.226 Y80.498 E4.6228
G1 X173.244 Y80.490 E4.6238
G1 X173.547 Y80.354 E4.6421
G1 X173.565 Y80.347 E4.6432
G1 X174.337 Y80.050 E4.6885
G1 X174.359 Y80.042 E4.6898
G1 X174.755 Y79.919 E4.7126
G1 X174.778 Y79.913 E4.7139
G1 X175.946 Y79.630 E4.7799
G1 X175.965 Y79.626 E4.7809
G1 X176.290 Y79.565 E4.7991
G1 X176.309 Y79.562 E4.8001
G1 X179.325 Y79.156 E4.9671
G1 X179.328 Y79.155 E4.9673
G1 X179.381 Y79.149 E4.9702
G1 X179.384 Y79.148 E4.9704
G1 X180.478 Y79.019 E5.0308
G1 X180.608 Y78.955 E5.0388
G1 X182.602 Y78.769 E5.1487
G1 X184.704 Y78.522 E5.2648
G1 X184.832 Y78.562 E5.2722
G1 X187.807 Y78.286 E5.4362
G1 X187.899 Y78.242 E5.4418
G1 X189.616 Y78.118 E5.5363
G1 X192.024 Y77.894 E5.6690
G1 X192.146 Y77.935 E5.6760
G1 X195.982 Y77.658 E5.8871
G1 X196.277 Y77.762 E5.9043
G1 X200.332 Y81.534 E6.2082
G1 X200.457 Y81.821 E6.2254
G1 X200.457 Y99.827 E7.2135
G1 X200.381 Y100.000 E7.2239
G1 X200.457 Y100.173 E7.2342
G1 X200.457 Y118.179 E8.2224
G1 X200.332 Y118.466 E8.2395
G1 X196.277 Y122.238 E8.5435
G1 X195.982 Y122.342 E8.5606
G1 X192.133 Y122.064 E8.7724
G1 X192.062 Y122.088 E8.7766
G1 X189.824 Y121.897 E8.8998
G1 X187.899 Y121.758 E9.0057
G1 X187.835 Y121.727 E9.0096
G1 X186.527 Y121.616 E9.0817
G1 X186.524 Y121.615 E9.0818
G1 X186.482 Y121.612 E9.0842
G1 X186.479 Y121.611 E9.0843
G1 X184.806 Y121.446 E9.1766
G1 X184.704 Y121.478 E9.1825
G1 X182.463 Y121.214 E9.3063
G1 X180.580 Y121.028 E9.4101
G1 X180.488 Y120.982 E9.4158
G1 X179.384 Y120.852 E9.4768
G1 X179.381 Y120.851 E9.4769
G1 X179.329 Y120.845 E9.4798
G1 X179.325 Y120.844 E9.4800
G1 X176.309 Y120.438 E9.6470
G1 X176.290 Y120.435 E9.6481
G1 X175.965 Y120.374 E9.6662
G1 X175.946 Y120.370 E9.6673
G1 X174.778 Y120.087 E9.7333
G1 X174.755 Y120.081 E9.7346
G1 X174.359 Y119.958 E9.7573
G1 X174.337 Y119.950 E9.7586
G1 X173.565 Y119.653 E9.8040
G1 X173.547 Y119.645 E9.8051
G1 X173.244 Y119.510 E9.8233
G1 X173.226 Y119.502 E9.8244
G1 X172.475 Y119.119 E9.8706
G1 X172.454 Y119.107 E9.8720
G1 X172.096 Y118.894 E9.8948
G1 X172.075 Y118.881 E9.8962
G1 X171.087 Y118.202 E9.9620
G1 X171.067 Y118.187 E9.9634
G1 X170.730 Y117.920 E9.9870
G1 X170.710 Y117.904 E9.9884
G1 X170.123 Y117.371 E10.0318
G1 X170.110 Y117.358 E10.0328
G1 X169.891 Y117.139 E10.0499
G1 X169.878 Y117.126 E10.0509
G1 X169.281 Y116.468 E10.0996
G1 X169.265 Y116.448 E10.1011
G1 X168.989 Y116.097 E10.1255
G1 X168.974 Y116.076 E10.1270
G1 X168.271 Y115.043 E10.1955
G1 X168.256 Y115.018 E10.1972
G1 X168.007 Y114.581 E10.2247
G1 X167.993 Y114.555 E10.2264
G1 X167.497 Y113.498 E10.2904
G1 X167.487 Y113.474 E10.2918
G1 X167.329 Y113.070 E10.3157
G1 X167.321 Y113.046 E10.3171
G1 X167.016 Y112.069 E10.3732
G1 X167.008 Y112.040 E10.3749
G1 X166.897 Y111.554 E10.4022
G1 X166.891 Y111.526 E10.4038
G1 X166.826 Y111.086 E10.4282
G1 X163.625 Y111.297 E10.6043
G1 X163.623 Y111.298 E10.6044
G1 X163.588 Y111.300 E10.6063
G1 X163.585 Y111.300 E10.6064
G1 X158.533 Y111.577 E10.8842
G1 X158.199 Y112.578 E10.9420
G1 X158.189 Y112.605 E10.9436
G1 X157.992 Y113.068 E10.9713
G1 X157.980 Y113.095 E10.9729
G1 X157.535 Y113.950 E11.0257
G1 X157.520 Y113.977 E11.0275
G1 X157.235 Y114.428 E11.0567
G1 X157.217 Y114.453 E11.0584
G1 X156.673 Y115.173 E11.1079
G1 X156.655 Y115.196 E11.1095
G1 X156.325 Y115.568 E11.1368
G1 X156.305 Y115.589 E11.1384
G1 X155.602 Y116.268 E11.1921
G1 X155.574 Y116.292 E11.1941
G1 X155.092 Y116.675 E11.2279
G1 X155.063 Y116.696 E11.2298
G1 X154.101 Y117.319 E11.2927
G1 X154.071 Y117.337 E11.2946
G1 X153.548 Y117.610 E11.3270
G1 X153.517 Y117.625 E11.3289
G1 X152.250 Y118.146 E11.4041
G1 X152.181 Y118.167 E11.4081
G1 X150.971 Y118.408 E11.4758
G1 X150.899 Y118.415 E11.4798
G1 X146.735 Y118.432 E11.7083
G1 X146.675 Y118.457 E11.7118
G1 X144.439 Y118.442 E11.8345
G1 X142.489 Y118.450 E11.9415
G1 X142.437 Y118.428 E11.9446
G1 X139.461 Y118.408 E12.1080
G1 X139.411 Y118.428 E12.1109
G1 X137.553 Y118.395 E12.2129
G1 X135.226 Y118.379 E12.3406
G1 X135.163 Y118.353 E12.3443
G1 X131.053 Y118.281 E12.5699
G1 X130.782 Y118.165 E12.5861
G1 X127.246 Y114.566 E12.8630
G1 X127.237 Y114.570 E12.8636
G1 X125.935 Y115.086 E12.9404
G1 X125.925 Y115.090 E12.9410
G1 X125.760 Y115.150 E12.9506
G1 X125.750 Y115.153 E12.9512
G1 X124.607 Y115.535 E13.0173
G1 X124.601 Y115.537 E13.0177
G1 X124.505 Y115.568 E13.0232
G1 X124.499 Y115.569 E13.0235
G1 X123.372 Y115.907 E13.0881
G1 X123.349 Y115.913 E13.0894
G1 X122.961 Y116.003 E13.1112
G1 X122.938 Y116.007 E13.1125
G1 X122.082 Y116.151 E13.1602
G1 X122.029 Y116.156 E13.1631
G1 X121.132 Y116.179 E13.2123
G1 X121.079 Y116.176 E13.2152
G1 X119.860 Y116.035 E13.2826
G1 X119.808 Y116.025 E13.2855
G1 X118.939 Y115.798 E13.3348
G1 X118.889 Y115.781 E13.3377
G1 X117.943 Y115.385 E13.3940
G1 X117.905 Y115.366 E13.3963
G1 X117.283 Y115.020 E13.4354
G1 X117.247 Y114.997 E13.4377
G1 X116.406 Y114.397 E13.4944
G1 X116.365 Y114.363 E13.4973
G1 X115.711 Y113.740 E13.5469
G1 X115.676 Y113.701 E13.5498
G1 X114.917 Y112.740 E13.6170
G1 X114.889 Y112.698 E13.6198
G1 X114.450 Y111.953 E13.6672
G1 X114.427 Y111.908 E13.6700
G1 X114.006 Y110.904 E13.7297
G1 X113.990 Y110.858 E13.7324
G1 X113.771 Y110.056 E13.7780
G1 X113.761 Y110.008 E13.7807
G1 X113.729 Y109.777 E13.7935
G1 X112.598 Y109.772 E13.8556
G1 X112.511 Y109.735 E13.8607
G1 X111.008 Y109.618 E13.9435
G1 X109.334 Y109.539 E14.0355
G1 X109.198 Y109.477 E14.0436
G1 X107.372 Y109.335 E14.1441
G1 X107.368 Y109.335 E14.1444
G1 X107.290 Y109.328 E14.1487
G1 X107.286 Y109.327 E14.1489
G1 X101.877 Y108.773 E14.4473
G1 X101.629 Y108.647 E14.4626
G1 X98.350 Y105.014 E14.7311
G1 X98.250 Y104.754 E14.7464
G1 X98.250 Y95.249 E15.2680
G1 X98.350 Y94.990 E15.2833
G1 X101.617 Y91.360 E15.5513
G1 X101.864 Y91.234 E15.5665
G1 X106.674 Y91.230 F7200
G92 E0
G1 X106.676 Y91.230 E0.0001 F1800
G1 X106.752 Y91.223 E0.0043
G1 X106.754 Y91.222 E0.0044
G1 X109.348 Y91.015 E0.1472
G1 X109.366 Y90.996 E0.1486
G1 X109.454 Y90.956 E0.1539
G1 X110.988 Y90.883 E0.2382
G1 X112.646 Y90.750 E0.3295
G1 X112.700 Y90.728 E0.3327
G1 X114.151 Y90.720 E0.4124
G1 X114.164 Y90.582 E0.4200
G1 X114.166 Y90.569 E0.4207
G1 X114.282 Y89.964 E0.4545
G1 X114.285 Y89.952 E0.4552
G1 X114.538 Y89.104 E0.5038
G1 X114.543 Y89.091 E0.5045
G1 X114.799 Y88.482 E0.5408
G1 X114.805 Y88.469 E0.5416
G1 X115.240 Y87.684 E0.5908
G1 X115.247 Y87.673 E0.5916
G1 X115.631 Y87.130 E0.6281
G1 X115.639 Y87.119 E0.6288
G1 X116.244 Y86.434 E0.6790
G1 X116.254 Y86.423 E0.6797
G1 X116.778 Y85.951 E0.7185
G1 X116.790 Y85.942 E0.7193
G1 X117.535 Y85.413 E0.7694
G1 X117.547 Y85.405 E0.7702
G1 X118.139 Y85.076 E0.8074
G1 X118.152 Y85.070 E0.8082
G1 X118.985 Y84.721 E0.8578
G1 X118.999 Y84.716 E0.8585
