%
(PROBOTIX LinuxCNC)
G0 G54 G17 G20 G90 G40 G49 G64 P0.010
 
o100 CALL [1]
 
G0 Z0.8000
G0 M3 M8 S12000.000
G0 X21.6249 Y39.0902
Z0.2000
G1   F30.0 Z-0.5118 
G0  
Z0.2000
G0  Y35.1532

G1   F30.0 Z-0.5118 
G0  
Z0.2000
G0  Y29.0508

G1   F30.0 Z-0.5118 
G0  
Z0.2000
G0  Y25.1138

G1   F30.0 Z-0.5118 
G0  
Z0.2000
G0 X21.6344 Y17.6984

G1   F30.0 Z-0.5118 
G0  
Z0.2000
G0  Y13.7613

G1   F30.0 Z-0.5118 
G0  
Z0.2000
G0  Y7.6590

G1   F30.0 Z-0.5118 
G0  
Z0.2000
G0  Y3.7220

G1   F30.0 Z-0.5118 
G0  
Z0.2000
M3 M8 S12000.000
G0 X0.6036 Y0.5099
Z0.2000
G1   F30.0 Z-0.1250 
G2 X0.4427 Y0.6708 I0.0000 J0.1609 F75.0
G1  Y8.7205   
 Y9.0817 
 Y15.4034 
 Y15.7646 
 Y20.7495 
G2 X0.6036 Y20.9105 I0.1609 J0.0000 
G1 X2.2742    
X2.6354  
X16.1285  
X16.4897  
X21.4501  
G2 X22.1031 Y20.2574 I0.0000 J-0.6531 
G1  Y19.3989   
G2 X22.0017 Y19.1836 I-0.2790 J0.0000 
G3 X21.9456 Y19.0648 I0.0980 J-0.1188 
G1  Y12.6998   
 Y12.3386 
 Y5.0579 
 Y4.6967 
 Y2.3555 
G3 X22.0017 Y2.2367 I0.1540 J0.0000 
G2 X22.1031 Y2.0214 I-0.1776 J-0.2152 
G1  Y1.1629   
G2 X21.4501 Y0.5099 I-0.6531 J0.0000 
G1 X20.1078    
X19.7466  
X6.2536  
X5.8924  
X0.6036  
G1   F30.0 Z-0.2500 
G2 X0.4427 Y0.6708 I0.0000 J0.1609 F75.0
G1  Y8.7205   
 Y9.0817 
 Y15.4034 
 Y15.7646 
 Y20.7495 
G2 X0.6036 Y20.9105 I0.1609 J0.0000 
G1 X2.2742    
X2.6354  
X16.1285  
X16.4897  
X21.4501  
G2 X22.1031 Y20.2574 I0.0000 J-0.6531 
G1  Y19.3989   
G2 X22.0017 Y19.1836 I-0.2790 J0.0000 
G3 X21.9456 Y19.0648 I0.0980 J-0.1188 
G1  Y12.6998   
 Y12.3386 
 Y5.0579 
 Y4.6967 
 Y2.3555 
G3 X22.0017 Y2.2367 I0.1540 J0.0000 
G2 X22.1031 Y2.0214 I-0.1776 J-0.2152 
G1  Y1.1629   
G2 X21.4501 Y0.5099 I-0.6531 J0.0000 
G1 X20.1078    
X19.7466  
X6.2536  
X5.8924  
X0.6036  
G1   F30.0 Z-0.3750 
G2 X0.4427 Y0.6708 I0.0000 J0.1609 F75.0
G1  Y8.7205   
 Y9.0817 
 Y15.4034 
 Y15.7646 
 Y20.7495 
G2 X0.6036 Y20.9105 I0.1609 J0.0000 
G1 X2.2742    
X2.6354  
X16.1285  
X16.4897  
X21.4501  
G2 X22.1031 Y20.2574 I0.0000 J-0.6531 
G1  Y19.3989   
G2 X22.0017 Y19.1836 I-0.2790 J0.0000 
G3 X21.9456 Y19.0648 I0.0980 J-0.1188 
G1  Y12.6998   
 Y12.3386 
 Y5.0579 
 Y4.6967 
 Y2.3555 
G3 X22.0017 Y2.2367 I0.1540 J0.0000 
G2 X22.1031 Y2.0214 I-0.1776 J-0.2152 
G1  Y1.1629   
G2 X21.4501 Y0.5099 I-0.6531 J0.0000 
G1 X20.1078    
X19.7466  
X6.2536  
X5.8924  
X0.6036  
G1   F30.0 Z-0.5000 
G2 X0.4427 Y0.6708 I0.0000 J0.1609 F75.0
G1  Y8.7205   
  Z-0.3819
 Y9.0817 
G1   F30.0 Z-0.5000 
G1  Y15.4034 F75.0  
  Z-0.3819
 Y15.7646 
G1   F30.0 Z-0.5000 
G1  Y20.7495 F75.0  
G2 X0.6036 Y20.9105 I0.1609 J0.0000 
G1 X2.2742    
  Z-0.3819
X2.6354  
G1   F30.0 Z-0.5000 
G1 X16.1285  F75.0  
  Z-0.3819
X16.4897  
G1   F30.0 Z-0.5000 
G1 X21.4501  F75.0  
G2 X22.1031 Y20.2574 I0.0000 J-0.6531 
G1  Y19.3989   
G2 X22.0017 Y19.1836 I-0.2790 J0.0000 
G3 X21.9456 Y19.0648 I0.0980 J-0.1188 
G1  Y12.6998   
  Z-0.3819
 Y12.3386 
G1   F30.0 Z-0.5000 
G1  Y5.0579 F75.0  
  Z-0.3819
 Y4.6967 
G1   F30.0 Z-0.5000 
G1  Y2.3555 F75.0  
G3 X22.0017 Y2.2367 I0.1540 J0.0000 
G2 X22.1031 Y2.0214 I-0.1776 J-0.2152 
G1  Y1.1629   
G2 X21.4501 Y0.5099 I-0.6531 J0.0000 
G1 X20.1078    
  Z-0.3819
X19.7466  
G1   F30.0 Z-0.5000 
G1 X6.2536  F75.0  
  Z-0.3819
X5.8924  
G1   F30.0 Z-0.5000 
G1 X0.6036  F75.0  
G0  
Z0.2000
G0 X0.5941 Y21.9017

G1   F30.0 Z-0.1250 
G2 X0.4332 Y22.0626 I0.0000 J0.1609 F75.0
G1  Y30.1123   
 Y30.4736 
 Y37.2026 
 Y37.5638 
 Y42.1414 
G2 X0.5941 Y42.3023 I0.1609 J0.0000 
G1 X2.2647    
X2.6259  
X16.1189  
X16.4802  
X21.4406  
G2 X22.0936 Y41.6493 I0.0000 J-0.6531 
G1  Y40.7907   
G2 X21.9921 Y40.5755 I-0.2790 J0.0000 
G3 X21.9361 Y40.4567 I0.0980 J-0.1188 
G1  Y34.0917   
 Y33.7305 
 Y27.0018 
 Y26.6406 
 Y23.7473 
G3 X21.9921 Y23.6285 I0.1540 J0.0000 
G2 X22.0936 Y23.4133 I-0.1776 J-0.2152 
G1  Y22.5548   
G2 X21.4406 Y21.9017 I-0.6530 J0.0000 
G1 X20.0983    
X19.7371  
X6.2441  
X5.8828  
X0.5941  
G1   F30.0 Z-0.2500 
G2 X0.4332 Y22.0626 I0.0000 J0.1609 F75.0
G1  Y30.1123   
 Y30.4736 
 Y37.2026 
 Y37.5638 
 Y42.1414 
G2 X0.5941 Y42.3023 I0.1609 J0.0000 
G1 X2.2647    
X2.6259  
X16.1189  
X16.4802  
X21.4406  
G2 X22.0936 Y41.6493 I0.0000 J-0.6531 
G1  Y40.7907   
G2 X21.9921 Y40.5755 I-0.2790 J0.0000 
G3 X21.9361 Y40.4567 I0.0980 J-0.1188 
G1  Y34.0917   
 Y33.7305 
 Y27.0018 
 Y26.6406 
 Y23.7473 
G3 X21.9921 Y23.6285 I0.1540 J0.0000 
G2 X22.0936 Y23.4133 I-0.1776 J-0.2152 
G1  Y22.5548   
G2 X21.4406 Y21.9017 I-0.6530 J0.0000 
G1 X20.0983    
X19.7371  
X6.2441  
X5.8828  
X0.5941  
G1   F30.0 Z-0.3750 
G2 X0.4332 Y22.0626 I0.0000 J0.1609 F75.0
G1  Y30.1123   
 Y30.4736 
 Y37.2026 
 Y37.5638 
 Y42.1414 
G2 X0.5941 Y42.3023 I0.1609 J0.0000 
G1 X2.2647    
X2.6259  
X16.1189  
X16.4802  
X21.4406  
G2 X22.0936 Y41.6493 I0.0000 J-0.6531 
G1  Y40.7907   
G2 X21.9921 Y40.5755 I-0.2790 J0.0000 
G3 X21.9361 Y40.4567 I0.0980 J-0.1188 
G1  Y34.0917   
 Y33.7305 
 Y27.0018 
 Y26.6406 
 Y23.7473 
G3 X21.9921 Y23.6285 I0.1540 J0.0000 
G2 X22.0936 Y23.4133 I-0.1776 J-0.2152 
G1  Y22.5548   
G2 X21.4406 Y21.9017 I-0.6530 J0.0000 
G1 X20.0983    
X19.7371  
X6.2441  
X5.8828  
X0.5941  
G1   F30.0 Z-0.5000 
G2 X0.4332 Y22.0626 I0.0000 J0.1609 F75.0
G1  Y30.1123   
  Z-0.3819
 Y30.4736 
G1   F30.0 Z-0.5000 
G1  Y37.2026 F75.0  
  Z-0.3819
 Y37.5638 
G1   F30.0 Z-0.5000 
G1  Y42.1414 F75.0  
G2 X0.5941 Y42.3023 I0.1609 J0.0000 
G1 X2.2647    
  Z-0.3819
X2.6259  
G1   F30.0 Z-0.5000 
G1 X16.1189  F75.0  
  Z-0.3819
X16.4802  
G1   F30.0 Z-0.5000 
G1 X21.4406  F75.0  
G2 X22.0936 Y41.6493 I0.0000 J-0.6531 
G1  Y40.7907   
G2 X21.9921 Y40.5755 I-0.2790 J0.0000 
G3 X21.9361 Y40.4567 I0.0980 J-0.1188 
G1  Y34.0917   
  Z-0.3819
 Y33.7305 
G1   F30.0 Z-0.5000 
G1  Y27.0018 F75.0  
  Z-0.3819
 Y26.6406 
G1   F30.0 Z-0.5000 
G1  Y23.7473 F75.0  
G3 X21.9921 Y23.6285 I0.1540 J0.0000 
G2 X22.0936 Y23.4133 I-0.1776 J-0.2152 
G1  Y22.5548   
G2 X21.4406 Y21.9017 I-0.6530 J0.0000 
G1 X20.0983    
  Z-0.3819
X19.7371  
G1   F30.0 Z-0.5000 
G1 X6.2441  F75.0  
  Z-0.3819
X5.8828  
G1   F30.0 Z-0.5000 
G1 X0.5941  F75.0  
G0  
Z0.2000
M3 M8 S12000.000
G0 X3.4392 Y3.4908
Z0.2000
G1   F30.0 Z-0.1250 
G1 X3.6046 Y3.4432 F75.0  
X3.7737 Y3.4107 
G3 X4.0485 Y3.3908 I0.2748 J1.8861 
G1 X9.7766    
X10.1378  
X16.1709  
X16.5321  
X18.3394  
G3 X20.2454 Y5.2968 I0.0000 J1.9060 
G1  Y6.4304   
 Y6.7916 
 Y9.1388 
G2 X20.3079 Y9.2013 I0.0625 J0.0000 
G1 X20.9147    
 Y12.2190 
X20.3079  
G2 X20.2454 Y12.2815 I0.0000 J0.0625 
G1  Y14.7769   
 Y15.1381 
 Y16.1235 
G3 X18.3394 Y18.0296 I-1.9060 J0.0000 
G1 X13.2806    
X12.9193  
X6.8863  
X6.5251  
X4.0485  
G3 X2.1425 Y16.1235 I0.0000 J-1.9060 
G1  Y15.6592   
 Y15.2980 
 Y9.2650 
 Y8.9038 
 Y5.2968 
G3 X3.4392 Y3.4908 I1.9060 J0.0000 
G1   F30.0 Z-0.2500 
G1 X3.6046 Y3.4432 F75.0  
X3.7737 Y3.4107 
G3 X4.0485 Y3.3908 I0.2748 J1.8861 
G1 X9.7766    
X10.1378  
X16.1709  
X16.5321  
X18.3394  
G3 X20.2454 Y5.2968 I0.0000 J1.9060 
G1  Y6.4304   
 Y6.7916 
 Y9.1388 
G2 X20.3079 Y9.2013 I0.0625 J0.0000 
G1 X20.9147    
 Y12.2190 
X20.3079  
G2 X20.2454 Y12.2815 I0.0000 J0.0625 
G1  Y14.7769   
 Y15.1381 
 Y16.1235 
G3 X18.3394 Y18.0296 I-1.9060 J0.0000 
G1 X13.2806    
X12.9193  
X6.8863  
X6.5251  
X4.0485  
G3 X2.1425 Y16.1235 I0.0000 J-1.9060 
G1  Y15.6592   
 Y15.2980 
 Y9.2650 
 Y8.9038 
 Y5.2968 
G3 X3.4392 Y3.4908 I1.9060 J0.0000 
G1   F30.0 Z-0.3750 
G1 X3.6046 Y3.4432 F75.0  
X3.7737 Y3.4107 
G3 X4.0485 Y3.3908 I0.2748 J1.8861 
G1 X9.7766    
X10.1378  
X16.1709  
X16.5321  
X18.3394  
G3 X20.2454 Y5.2968 I0.0000 J1.9060 
G1  Y6.4304   
 Y6.7916 
 Y9.1388 
G2 X20.3079 Y9.2013 I0.0625 J0.0000 
G1 X20.9147    
 Y12.2190 
X20.3079  
G2 X20.2454 Y12.2815 I0.0000 J0.0625 
G1  Y14.7769   
 Y15.1381 
 Y16.1235 
G3 X18.3394 Y18.0296 I-1.9060 J0.0000 
G1 X13.2806    
X12.9193  
X6.8863  
X6.5251  
X4.0485  
G3 X2.1425 Y16.1235 I0.0000 J-1.9060 
G1  Y15.6592   
 Y15.2980 
 Y9.2650 
 Y8.9038 
 Y5.2968 
G3 X3.4392 Y3.4908 I1.9060 J0.0000 
G1   F30.0 Z-0.5000 
G1   F75.0 Z-0.3819 
X3.6046 Y3.4432 
X3.7737 Y3.4107 
G1   F30.0 Z-0.5000 
G3 X4.0485 Y3.3908 I0.2748 J1.8861 F75.0
G1 X9.7766    
  Z-0.3819
X10.1378  
G1   F30.0 Z-0.5000 
G1 X16.1709  F75.0  
  Z-0.3819
X16.5321  
G1   F30.0 Z-0.5000 
G1 X18.3394  F75.0  
G3 X20.2454 Y5.2968 I0.0000 J1.9060 
G1  Y6.4304   
  Z-0.3819
 Y6.7916 
G1   F30.0 Z-0.5000 
G1  Y9.1388 F75.0  
G2 X20.3079 Y9.2013 I0.0625 J0.0000 
G1 X20.9147    
 Y12.2190 
X20.3079  
G2 X20.2454 Y12.2815 I0.0000 J0.0625 
G1  Y14.7769   
  Z-0.3819
 Y15.1381 
G1   F30.0 Z-0.5000 
G1  Y16.1235 F75.0  
G3 X18.3394 Y18.0296 I-1.9060 J0.0000 
G1 X13.2806    
  Z-0.3819
X12.9193  
G1   F30.0 Z-0.5000 
G1 X6.8863  F75.0  
  Z-0.3819
X6.5251  
G1   F30.0 Z-0.5000 
G1 X4.0485  F75.0  
G3 X2.1425 Y16.1235 I0.0000 J-1.9060 
G1  Y15.6592   
  Z-0.3819
 Y15.2980 
G1   F30.0 Z-0.5000 
G1  Y9.2650 F75.0  
  Z-0.3819
 Y8.9038 
G1   F30.0 Z-0.5000 
G1  Y5.2968 F75.0  
G3 X3.4392 Y3.4908 I1.9060 J0.0000 
G0  
Z0.2000
G0 X4.0390 Y24.7826

G1   F30.0 Z-0.1250 
G1 X9.7671  F75.0  
X10.1283  
X16.1613  
X16.5226  
X18.3299  
G3 X20.2359 Y26.6886 I0.0000 J1.9060 
G1  Y27.8222   
 Y28.1834 
 Y30.5307 
G2 X20.2984 Y30.5932 I0.0625 J0.0000 
G1 X20.9052    
 Y33.6109 
X20.2984  
G2 X20.2359 Y33.6734 I0.0000 J0.0625 
G1  Y35.7562   
 Y36.1174 
 Y37.5154 
G3 X18.3299 Y39.4214 I-1.9060 J0.0000 
G1 X13.2710    
X12.9098  
X6.8768  
X6.5156  
X4.0390  
G3 X2.1330 Y37.5154 I0.0000 J-1.9060 
G1  Y37.0511   
 Y36.6899 
 Y30.6569 
 Y30.2956 
 Y26.6886 
G3 X3.4297 Y24.8826 I1.9060 J0.0000 
G1 X3.5951 Y24.8350   
X3.7642 Y24.8025 
G3 X4.0390 Y24.7826 I0.2748 J1.8861 
G1   F30.0 Z-0.2500 
G1 X9.7671  F75.0  
X10.1283  
X16.1613  
X16.5226  
X18.3299  
G3 X20.2359 Y26.6886 I0.0000 J1.9060 
G1  Y27.8222   
 Y28.1834 
 Y30.5307 
G2 X20.2984 Y30.5932 I0.0625 J0.0000 
G1 X20.9052    
 Y33.6109 
X20.2984  
G2 X20.2359 Y33.6734 I0.0000 J0.0625 
G1  Y35.7562   
 Y36.1174 
 Y37.5154 
G3 X18.3299 Y39.4214 I-1.9060 J0.0000 
G1 X13.2710    
X12.9098  
X6.8768  
X6.5156  
X4.0390  
G3 X2.1330 Y37.5154 I0.0000 J-1.9060 
G1  Y37.0511   
 Y36.6899 
 Y30.6569 
 Y30.2956 
 Y26.6886 
G3 X3.4297 Y24.8826 I1.9060 J0.0000 
G1 X3.5951 Y24.8350   
X3.7642 Y24.8025 
G3 X4.0390 Y24.7826 I0.2748 J1.8861 
G1   F30.0 Z-0.3750 
G1 X9.7671  F75.0  
X10.1283  
X16.1613  
X16.5226  
X18.3299  
G3 X20.2359 Y26.6886 I0.0000 J1.9060 
G1  Y27.8222   
 Y28.1834 
 Y30.5307 
G2 X20.2984 Y30.5932 I0.0625 J0.0000 
G1 X20.9052    
 Y33.6109 
X20.2984  
G2 X20.2359 Y33.6734 I0.0000 J0.0625 
G1  Y35.7562   
 Y36.1174 
 Y37.5154 
G3 X18.3299 Y39.4214 I-1.9060 J0.0000 
G1 X13.2710    
X12.9098  
X6.8768  
X6.5156  
X4.0390  
G3 X2.1330 Y37.5154 I0.0000 J-1.9060 
G1  Y37.0511   
 Y36.6899 
 Y30.6569 
 Y30.2956 
 Y26.6886 
G3 X3.4297 Y24.8826 I1.9060 J0.0000 
G1 X3.5951 Y24.8350   
X3.7642 Y24.8025 
G3 X4.0390 Y24.7826 I0.2748 J1.8861 
G1   F30.0 Z-0.5000 
G1 X9.7671  F75.0  
  Z-0.3819
X10.1283  
G1   F30.0 Z-0.5000 
G1 X16.1613  F75.0  
  Z-0.3819
X16.5226  
G1   F30.0 Z-0.5000 
G1 X18.3299  F75.0  
G3 X20.2359 Y26.6886 I0.0000 J1.9060 
G1  Y27.8222   
  Z-0.3819
 Y28.1834 
G1   F30.0 Z-0.5000 
G1  Y30.5307 F75.0  
G2 X20.2984 Y30.5932 I0.0625 J0.0000 
G1 X20.9052    
 Y33.6109 
X20.2984  
G2 X20.2359 Y33.6734 I0.0000 J0.0625 
G1  Y35.7562   
  Z-0.3819
 Y36.1174 
G1   F30.0 Z-0.5000 
G1  Y37.5154 F75.0  
G3 X18.3299 Y39.4214 I-1.9060 J0.0000 
G1 X13.2710    
  Z-0.3819
X12.9098  
G1   F30.0 Z-0.5000 
G1 X6.8768  F75.0  
  Z-0.3819
X6.5156  
G1   F30.0 Z-0.5000 
G1 X4.0390  F75.0  
G3 X2.1330 Y37.5154 I0.0000 J-1.9060 
G1  Y37.0511   
  Z-0.3819
 Y36.6899 
G1   F30.0 Z-0.5000 
G1  Y30.6569 F75.0  
  Z-0.3819
 Y30.2956 
G1   F30.0 Z-0.5000 
G1  Y26.6886 F75.0  
G3 X3.4297 Y24.8826 I1.9060 J0.0000 
G1    Z-0.3819 
X3.5951 Y24.8350 
X3.7642 Y24.8025 
G1   F30.0 Z-0.5000 
G3 X4.0390 Y24.7826 I0.2748 J1.8861 F75.0
G0  
Z0.2000
M3 M8 S12000.000
G0 X0.9515 Y0.9661
Z0.2000
G1   F30.0 Z-0.1250 
G3 X0.9973 Y0.9203 I0.0458 J0.0000 F75.0
G3 X1.0431 Y0.9661 I0.0000 J0.0458
G3 X0.9973 Y1.0118 I-0.0458 J0.0000
G3 X0.9515 Y0.9661 I0.0000 J-0.0458
G1   F30.0 Z-0.2500 
G3 X0.9973 Y0.9203 I0.0458 J0.0000 F75.0
G3 X1.0431 Y0.9661 I0.0000 J0.0458
G3 X0.9973 Y1.0118 I-0.0458 J0.0000
G3 X0.9515 Y0.9661 I0.0000 J-0.0458
G1   F30.0 Z-0.3750 
G3 X0.9973 Y0.9203 I0.0458 J0.0000 F75.0
G3 X1.0431 Y0.9661 I0.0000 J0.0458
G3 X0.9973 Y1.0118 I-0.0458 J0.0000
G3 X0.9515 Y0.9661 I0.0000 J-0.0458
G1   F30.0 Z-0.5000 
G3 X0.9973 Y0.9203 I0.0458 J0.0000 F75.0
G3 X1.0431 Y0.9661 I0.0000 J0.0458
G3 X0.9973 Y1.0118 I-0.0458 J0.0000
G3 X0.9515 Y0.9661 I0.0000 J-0.0458
G0  
Z0.2000
G0 X1.6863 Y2.4390

G1   F30.0 Z-0.1250 
G3 X1.7488 Y2.5015 I0.0000 J0.0625 F75.0
G3 X1.6863 Y2.5640 I-0.0625 J0.0000
G3 X1.6238 Y2.5015 I0.0000 J-0.0625
G3 X1.6863 Y2.4390 I0.0625 J0.0000
G1   F30.0 Z-0.2500 
G3 X1.7488 Y2.5015 I0.0000 J0.0625 F75.0
G3 X1.6863 Y2.5640 I-0.0625 J0.0000
G3 X1.6238 Y2.5015 I0.0000 J-0.0625
G3 X1.6863 Y2.4390 I0.0625 J0.0000
G1   F30.0 Z-0.3750 
G3 X1.7488 Y2.5015 I0.0000 J0.0625 F75.0
G3 X1.6863 Y2.5640 I-0.0625 J0.0000
G3 X1.6238 Y2.5015 I0.0000 J-0.0625
G3 X1.6863 Y2.4390 I0.0625 J0.0000
G1   F30.0 Z-0.5000 
G3 X1.7488 Y2.5015 I0.0000 J0.0625 F75.0
G3 X1.6863 Y2.5640 I-0.0625 J0.0000
G3 X1.6238 Y2.5015 I0.0000 J-0.0625
G3 X1.6863 Y2.4390 I0.0625 J0.0000
G0  
Z0.2000
G0 X11.2695 Y2.5015

G1   F30.0 Z-0.1250 
G3 X11.3320 Y2.4390 I0.0625 J0.0000 F75.0
G3 X11.3945 Y2.5015 I0.0000 J0.0625
G3 X11.3320 Y2.5640 I-0.0625 J0.0000
G3 X11.2695 Y2.5015 I0.0000 J-0.0625
G1   F30.0 Z-0.2500 
G3 X11.3320 Y2.4390 I0.0625 J0.0000 F75.0
G3 X11.3945 Y2.5015 I0.0000 J0.0625
G3 X11.3320 Y2.5640 I-0.0625 J0.0000
G3 X11.2695 Y2.5015 I0.0000 J-0.0625
G1   F30.0 Z-0.3750 
G3 X11.3320 Y2.4390 I0.0625 J0.0000 F75.0
G3 X11.3945 Y2.5015 I0.0000 J0.0625
G3 X11.3320 Y2.5640 I-0.0625 J0.0000
G3 X11.2695 Y2.5015 I0.0000 J-0.0625
G1   F30.0 Z-0.5000 
G3 X11.3320 Y2.4390 I0.0625 J0.0000 F75.0
G3 X11.3945 Y2.5015 I0.0000 J0.0625
G3 X11.3320 Y2.5640 I-0.0625 J0.0000
G3 X11.2695 Y2.5015 I0.0000 J-0.0625
G0  
Z0.2000
G0 X19.0224 Y0.9661

G1   F30.0 Z-0.1250 
G3 X19.0682 Y0.9203 I0.0458 J0.0000 F75.0
G3 X19.1139 Y0.9661 I0.0000 J0.0458
G3 X19.0682 Y1.0118 I-0.0458 J0.0000
G3 X19.0224 Y0.9661 I0.0000 J-0.0458
G1   F30.0 Z-0.2500 
G3 X19.0682 Y0.9203 I0.0458 J0.0000 F75.0
G3 X19.1139 Y0.9661 I0.0000 J0.0458
G3 X19.0682 Y1.0118 I-0.0458 J0.0000
G3 X19.0224 Y0.9661 I0.0000 J-0.0458
G1   F30.0 Z-0.3750 
G3 X19.0682 Y0.9203 I0.0458 J0.0000 F75.0
G3 X19.1139 Y0.9661 I0.0000 J0.0458
G3 X19.0682 Y1.0118 I-0.0458 J0.0000
G3 X19.0224 Y0.9661 I0.0000 J-0.0458
G1   F30.0 Z-0.5000 
G3 X19.0682 Y0.9203 I0.0458 J0.0000 F75.0
G3 X19.1139 Y0.9661 I0.0000 J0.0458
G3 X19.0682 Y1.0118 I-0.0458 J0.0000
G3 X19.0224 Y0.9661 I0.0000 J-0.0458
G0  
Z0.2000
G0 X20.2517 Y1.0645

G1   F30.0 Z-0.1250 
G3 X20.2876 Y1.0286 I0.0359 J0.0000 F75.0
G3 X20.3235 Y1.0645 I0.0000 J0.0359
G3 X20.2876 Y1.1004 I-0.0359 J0.0000
G3 X20.2517 Y1.0645 I0.0000 J-0.0359
G1   F30.0 Z-0.2500 
G3 X20.2876 Y1.0286 I0.0359 J0.0000 F75.0
G3 X20.3235 Y1.0645 I0.0000 J0.0359
G3 X20.2876 Y1.1004 I-0.0359 J0.0000
G3 X20.2517 Y1.0645 I0.0000 J-0.0359
G1   F30.0 Z-0.3750 
G3 X20.2876 Y1.0286 I0.0359 J0.0000 F75.0
G3 X20.3235 Y1.0645 I0.0000 J0.0359
G3 X20.2876 Y1.1004 I-0.0359 J0.0000
G3 X20.2517 Y1.0645 I0.0000 J-0.0359
G1   F30.0 Z-0.5000 
G3 X20.2876 Y1.0286 I0.0359 J0.0000 F75.0
G3 X20.3235 Y1.0645 I0.0000 J0.0359
G3 X20.2876 Y1.1004 I-0.0359 J0.0000
G3 X20.2517 Y1.0645 I0.0000 J-0.0359
G0  
Z0.2000
G0 X20.2876 Y1.8894

G1   F30.0 Z-0.1250 
G3 X20.3235 Y1.9253 I0.0000 J0.0359 F75.0
G3 X20.2876 Y1.9613 I-0.0359 J0.0000
G3 X20.2517 Y1.9253 I0.0000 J-0.0359
G3 X20.2876 Y1.8894 I0.0359 J0.0000
G1   F30.0 Z-0.2500 
G3 X20.3235 Y1.9253 I0.0000 J0.0359 F75.0
G3 X20.2876 Y1.9613 I-0.0359 J0.0000
G3 X20.2517 Y1.9253 I0.0000 J-0.0359
G3 X20.2876 Y1.8894 I0.0359 J0.0000
G1   F30.0 Z-0.3750 
G3 X20.3235 Y1.9253 I0.0000 J0.0359 F75.0
G3 X20.2876 Y1.9613 I-0.0359 J0.0000
G3 X20.2517 Y1.9253 I0.0000 J-0.0359
G3 X20.2876 Y1.8894 I0.0359 J0.0000
G1   F30.0 Z-0.5000 
G3 X20.3235 Y1.9253 I0.0000 J0.0359 F75.0
G3 X20.2876 Y1.9613 I-0.0359 J0.0000
G3 X20.2517 Y1.9253 I0.0000 J-0.0359
G3 X20.2876 Y1.8894 I0.0359 J0.0000
G0  
Z0.2000
G0 X20.9151 Y2.5015

G1   F30.0 Z-0.1250 
G3 X20.9776 Y2.4390 I0.0625 J0.0000 F75.0
G3 X21.0401 Y2.5015 I0.0000 J0.0625
G3 X20.9776 Y2.5640 I-0.0625 J0.0000
G3 X20.9151 Y2.5015 I0.0000 J-0.0625
G1   F30.0 Z-0.2500 
G3 X20.9776 Y2.4390 I0.0625 J0.0000 F75.0
G3 X21.0401 Y2.5015 I0.0000 J0.0625
G3 X20.9776 Y2.5640 I-0.0625 J0.0000
G3 X20.9151 Y2.5015 I0.0000 J-0.0625
G1   F30.0 Z-0.3750 
G3 X20.9776 Y2.4390 I0.0625 J0.0000 F75.0
G3 X21.0401 Y2.5015 I0.0000 J0.0625
G3 X20.9776 Y2.5640 I-0.0625 J0.0000
G3 X20.9151 Y2.5015 I0.0000 J-0.0625
G1   F30.0 Z-0.5000 
G3 X20.9776 Y2.4390 I0.0625 J0.0000 F75.0
G3 X21.0401 Y2.5015 I0.0000 J0.0625
G3 X20.9776 Y2.5640 I-0.0625 J0.0000
G3 X20.9151 Y2.5015 I0.0000 J-0.0625
G0  
Z0.2000
G0 X21.3846 Y1.8716

G1   F30.0 Z-0.1250 
G1  Y1.2810 F75.0  
G3 X21.5155  I0.0655 J0.0000 
G1  Y1.8716   
G3 X21.3846  I-0.0655 J0.0000 
G1   F30.0 Z-0.2500 
G1  Y1.2810 F75.0  
G3 X21.5155  I0.0655 J0.0000 
G1  Y1.8716   
G3 X21.3846  I-0.0655 J0.0000 
G1   F30.0 Z-0.3750 
G1  Y1.2810 F75.0  
G3 X21.5155  I0.0655 J0.0000 
G1  Y1.8716   
G3 X21.3846  I-0.0655 J0.0000 
G1   F30.0 Z-0.5000 
G1  Y1.2810 F75.0  
G3 X21.5155  I0.0655 J0.0000 
G1  Y1.8716   
G3 X21.3846  I-0.0655 J0.0000 
G0  
Z0.2000
G0 X21.3709 Y8.7052

G1   F30.0 Z-0.1250 
G3 X21.4108 Y8.7451 I0.0000 J0.0399 F75.0
G3 X21.3709 Y8.7850 I-0.0399 J0.0000
G3 X21.3310 Y8.7451 I0.0000 J-0.0399
G3 X21.3709 Y8.7052 I0.0399 J0.0000
G1   F30.0 Z-0.2500 
G3 X21.4108 Y8.7451 I0.0000 J0.0399 F75.0
G3 X21.3709 Y8.7850 I-0.0399 J0.0000
G3 X21.3310 Y8.7451 I0.0000 J-0.0399
G3 X21.3709 Y8.7052 I0.0399 J0.0000
G1   F30.0 Z-0.3750 
G3 X21.4108 Y8.7451 I0.0000 J0.0399 F75.0
G3 X21.3709 Y8.7850 I-0.0399 J0.0000
G3 X21.3310 Y8.7451 I0.0000 J-0.0399
G3 X21.3709 Y8.7052 I0.0399 J0.0000
G1   F30.0 Z-0.5000 
G3 X21.4108 Y8.7451 I0.0000 J0.0399 F75.0
G3 X21.3709 Y8.7850 I-0.0399 J0.0000
G3 X21.3310 Y8.7451 I0.0000 J-0.0399
G3 X21.3709 Y8.7052 I0.0399 J0.0000
G0  
Z0.2000
G0 X20.7570 Y8.7451

G1   F30.0 Z-0.1250 
G3 X20.7172 Y8.7850 I-0.0399 J0.0000 F75.0
G3 X20.6773 Y8.7451 I0.0000 J-0.0399
G3 X20.7172 Y8.7052 I0.0399 J0.0000
G3 X20.7570 Y8.7451 I0.0000 J0.0399
G1   F30.0 Z-0.2500 
G3 X20.7172 Y8.7850 I-0.0399 J0.0000 F75.0
G3 X20.6773 Y8.7451 I0.0000 J-0.0399
G3 X20.7172 Y8.7052 I0.0399 J0.0000
G3 X20.7570 Y8.7451 I0.0000 J0.0399
G1   F30.0 Z-0.3750 
G3 X20.7172 Y8.7850 I-0.0399 J0.0000 F75.0
G3 X20.6773 Y8.7451 I0.0000 J-0.0399
G3 X20.7172 Y8.7052 I0.0399 J0.0000
G3 X20.7570 Y8.7451 I0.0000 J0.0399
G1   F30.0 Z-0.5000 
G3 X20.7172 Y8.7850 I-0.0399 J0.0000 F75.0
G3 X20.6773 Y8.7451 I0.0000 J-0.0399
G3 X20.7172 Y8.7052 I0.0399 J0.0000
G3 X20.7570 Y8.7451 I0.0000 J0.0399
G0  
Z0.2000
G0 X21.3709 Y9.8863

G1   F30.0 Z-0.1250 
G3 X21.4108 Y9.9262 I0.0000 J0.0399 F75.0
G3 X21.3709 Y9.9661 I-0.0399 J0.0000
G3 X21.3310 Y9.9262 I0.0000 J-0.0399
G3 X21.3709 Y9.8863 I0.0399 J0.0000
G1   F30.0 Z-0.2500 
G3 X21.4108 Y9.9262 I0.0000 J0.0399 F75.0
G3 X21.3709 Y9.9661 I-0.0399 J0.0000
G3 X21.3310 Y9.9262 I0.0000 J-0.0399
G3 X21.3709 Y9.8863 I0.0399 J0.0000
G1   F30.0 Z-0.3750 
G3 X21.4108 Y9.9262 I0.0000 J0.0399 F75.0
G3 X21.3709 Y9.9661 I-0.0399 J0.0000
G3 X21.3310 Y9.9262 I0.0000 J-0.0399
G3 X21.3709 Y9.8863 I0.0399 J0.0000
G1   F30.0 Z-0.5000 
G3 X21.4108 Y9.9262 I0.0000 J0.0399 F75.0
G3 X21.3709 Y9.9661 I-0.0399 J0.0000
G3 X21.3310 Y9.9262 I0.0000 J-0.0399
G3 X21.3709 Y9.8863 I0.0399 J0.0000
G0  
Z0.2000
G0  Y10.6703

G1   F30.0 Z-0.1250 
G3 X21.4108 Y10.7102 I0.0000 J0.0399 F75.0
G3 X21.3709 Y10.7500 I-0.0399 J0.0000
G3 X21.3310 Y10.7102 I0.0000 J-0.0399
G3 X21.3709 Y10.6703 I0.0399 J0.0000
G1   F30.0 Z-0.2500 
G3 X21.4108 Y10.7102 I0.0000 J0.0399 F75.0
G3 X21.3709 Y10.7500 I-0.0399 J0.0000
G3 X21.3310 Y10.7102 I0.0000 J-0.0399
G3 X21.3709 Y10.6703 I0.0399 J0.0000
G1   F30.0 Z-0.3750 
G3 X21.4108 Y10.7102 I0.0000 J0.0399 F75.0
G3 X21.3709 Y10.7500 I-0.0399 J0.0000
G3 X21.3310 Y10.7102 I0.0000 J-0.0399
G3 X21.3709 Y10.6703 I0.0399 J0.0000
G1   F30.0 Z-0.5000 
G3 X21.4108 Y10.7102 I0.0000 J0.0399 F75.0
G3 X21.3709 Y10.7500 I-0.0399 J0.0000
G3 X21.3310 Y10.7102 I0.0000 J-0.0399
G3 X21.3709 Y10.6703 I0.0399 J0.0000
G0  
Z0.2000
G0  Y11.4543

G1   F30.0 Z-0.1250 
G3 X21.4108 Y11.4941 I0.0000 J0.0399 F75.0
G3 X21.3709 Y11.5340 I-0.0399 J0.0000
G3 X21.3310 Y11.4941 I0.0000 J-0.0399
G3 X21.3709 Y11.4543 I0.0399 J0.0000
G1   F30.0 Z-0.2500 
G3 X21.4108 Y11.4941 I0.0000 J0.0399 F75.0
G3 X21.3709 Y11.5340 I-0.0399 J0.0000
G3 X21.3310 Y11.4941 I0.0000 J-0.0399
G3 X21.3709 Y11.4543 I0.0399 J0.0000
G1   F30.0 Z-0.3750 
G3 X21.4108 Y11.4941 I0.0000 J0.0399 F75.0
G3 X21.3709 Y11.5340 I-0.0399 J0.0000
G3 X21.3310 Y11.4941 I0.0000 J-0.0399
G3 X21.3709 Y11.4543 I0.0399 J0.0000
G1   F30.0 Z-0.5000 
G3 X21.4108 Y11.4941 I0.0000 J0.0399 F75.0
G3 X21.3709 Y11.5340 I-0.0399 J0.0000
G3 X21.3310 Y11.4941 I0.0000 J-0.0399
G3 X21.3709 Y11.4543 I0.0399 J0.0000
G0  
Z0.2000
G0  Y12.6354

G1   F30.0 Z-0.1250 
G3 X21.4108 Y12.6752 I0.0000 J0.0399 F75.0
G3 X21.3709 Y12.7151 I-0.0399 J0.0000
G3 X21.3310 Y12.6752 I0.0000 J-0.0399
G3 X21.3709 Y12.6354 I0.0399 J0.0000
G1   F30.0 Z-0.2500 
G3 X21.4108 Y12.6752 I0.0000 J0.0399 F75.0
G3 X21.3709 Y12.7151 I-0.0399 J0.0000
G3 X21.3310 Y12.6752 I0.0000 J-0.0399
G3 X21.3709 Y12.6354 I0.0399 J0.0000
G1   F30.0 Z-0.3750 
G3 X21.4108 Y12.6752 I0.0000 J0.0399 F75.0
G3 X21.3709 Y12.7151 I-0.0399 J0.0000
G3 X21.3310 Y12.6752 I0.0000 J-0.0399
G3 X21.3709 Y12.6354 I0.0399 J0.0000
G1   F30.0 Z-0.5000 
G3 X21.4108 Y12.6752 I0.0000 J0.0399 F75.0
G3 X21.3709 Y12.7151 I-0.0399 J0.0000
G3 X21.3310 Y12.6752 I0.0000 J-0.0399
G3 X21.3709 Y12.6354 I0.0399 J0.0000
G0  
Z0.2000
G0 X20.7371 Y12.6752

G1   F30.0 Z-0.1250 
G3 X20.6973 Y12.7151 I-0.0399 J0.0000 F75.0
G3 X20.6574 Y12.6752 I0.0000 J-0.0399
G3 X20.6973 Y12.6354 I0.0399 J0.0000
G3 X20.7371 Y12.6752 I0.0000 J0.0399
G1   F30.0 Z-0.2500 
G3 X20.6973 Y12.7151 I-0.0399 J0.0000 F75.0
G3 X20.6574 Y12.6752 I0.0000 J-0.0399
G3 X20.6973 Y12.6354 I0.0399 J0.0000
G3 X20.7371 Y12.6752 I0.0000 J0.0399
G1   F30.0 Z-0.3750 
G3 X20.6973 Y12.7151 I-0.0399 J0.0000 F75.0
G3 X20.6574 Y12.6752 I0.0000 J-0.0399
G3 X20.6973 Y12.6354 I0.0399 J0.0000
G3 X20.7371 Y12.6752 I0.0000 J0.0399
G1   F30.0 Z-0.5000 
G3 X20.6973 Y12.7151 I-0.0399 J0.0000 F75.0
G3 X20.6574 Y12.6752 I0.0000 J-0.0399
G3 X20.6973 Y12.6354 I0.0399 J0.0000
G3 X20.7371 Y12.6752 I0.0000 J0.0399
G0  
Z0.2000
G0 X20.9776 Y18.8563

G1   F30.0 Z-0.1250 
G3 X21.0401 Y18.9188 I0.0000 J0.0625 F75.0
G3 X20.9776 Y18.9813 I-0.0625 J0.0000
G3 X20.9151 Y18.9188 I0.0000 J-0.0625
G3 X20.9776 Y18.8563 I0.0625 J0.0000
G1   F30.0 Z-0.2500 
G3 X21.0401 Y18.9188 I0.0000 J0.0625 F75.0
G3 X20.9776 Y18.9813 I-0.0625 J0.0000
G3 X20.9151 Y18.9188 I0.0000 J-0.0625
G3 X20.9776 Y18.8563 I0.0625 J0.0000
G1   F30.0 Z-0.3750 
G3 X21.0401 Y18.9188 I0.0000 J0.0625 F75.0
G3 X20.9776 Y18.9813 I-0.0625 J0.0000
G3 X20.9151 Y18.9188 I0.0000 J-0.0625
G3 X20.9776 Y18.8563 I0.0625 J0.0000
G1   F30.0 Z-0.5000 
G3 X21.0401 Y18.9188 I0.0000 J0.0625 F75.0
G3 X20.9776 Y18.9813 I-0.0625 J0.0000
G3 X20.9151 Y18.9188 I0.0000 J-0.0625
G3 X20.9776 Y18.8563 I0.0625 J0.0000
G0  
Z0.2000
G0 X21.3846 Y19.5487

G1   F30.0 Z-0.1250 
G3 X21.5155  I0.0655 J0.0000 F75.0
G1  Y20.1393   
G3 X21.3846  I-0.0655 J0.0000 
G1  Y19.5487   
G1   F30.0 Z-0.2500 
G3 X21.5155  I0.0655 J0.0000 F75.0
G1  Y20.1393   
G3 X21.3846  I-0.0655 J0.0000 
G1  Y19.5487   
G1   F30.0 Z-0.3750 
G3 X21.5155  I0.0655 J0.0000 F75.0
G1  Y20.1393   
G3 X21.3846  I-0.0655 J0.0000 
G1  Y19.5487   
G1   F30.0 Z-0.5000 
G3 X21.5155  I0.0655 J0.0000 F75.0
G1  Y20.1393   
G3 X21.3846  I-0.0655 J0.0000 
G1  Y19.5487   
G0  
Z0.2000
G0 X20.3235 Y19.4950

G1   F30.0 Z-0.1250 
G3 X20.2876 Y19.5309 I-0.0359 J0.0000 F75.0
G3 X20.2517 Y19.4950 I0.0000 J-0.0359
G3 X20.2876 Y19.4591 I0.0359 J0.0000
G3 X20.3235 Y19.4950 I0.0000 J0.0359
G1   F30.0 Z-0.2500 
G3 X20.2876 Y19.5309 I-0.0359 J0.0000 F75.0
G3 X20.2517 Y19.4950 I0.0000 J-0.0359
G3 X20.2876 Y19.4591 I0.0359 J0.0000
G3 X20.3235 Y19.4950 I0.0000 J0.0359
G1   F30.0 Z-0.3750 
G3 X20.2876 Y19.5309 I-0.0359 J0.0000 F75.0
G3 X20.2517 Y19.4950 I0.0000 J-0.0359
G3 X20.2876 Y19.4591 I0.0359 J0.0000
G3 X20.3235 Y19.4950 I0.0000 J0.0359
G1   F30.0 Z-0.5000 
G3 X20.2876 Y19.5309 I-0.0359 J0.0000 F75.0
G3 X20.2517 Y19.4950 I0.0000 J-0.0359
G3 X20.2876 Y19.4591 I0.0359 J0.0000
G3 X20.3235 Y19.4950 I0.0000 J0.0359
G0  
Z0.2000
G0 X20.2876 Y20.3199

G1   F30.0 Z-0.1250 
G3 X20.3235 Y20.3558 I0.0000 J0.0359 F75.0
G3 X20.2876 Y20.3918 I-0.0359 J0.0000
G3 X20.2516 Y20.3558 I0.0000 J-0.0359
G3 X20.2876 Y20.3199 I0.0359 J0.0000
G1   F30.0 Z-0.2500 
G3 X20.3235 Y20.3558 I0.0000 J0.0359 F75.0
G3 X20.2876 Y20.3918 I-0.0359 J0.0000
G3 X20.2516 Y20.3558 I0.0000 J-0.0359
G3 X20.2876 Y20.3199 I0.0359 J0.0000
G1   F30.0 Z-0.3750 
G3 X20.3235 Y20.3558 I0.0000 J0.0359 F75.0
G3 X20.2876 Y20.3918 I-0.0359 J0.0000
G3 X20.2516 Y20.3558 I0.0000 J-0.0359
G3 X20.2876 Y20.3199 I0.0359 J0.0000
G1   F30.0 Z-0.5000 
G3 X20.3235 Y20.3558 I0.0000 J0.0359 F75.0
G3 X20.2876 Y20.3918 I-0.0359 J0.0000
G3 X20.2516 Y20.3558 I0.0000 J-0.0359
G3 X20.2876 Y20.3199 I0.0359 J0.0000
G0  
Z0.2000
G0 X19.1139 Y20.4543

G1   F30.0 Z-0.1250 
G3 X19.0682 Y20.5000 I-0.0458 J0.0000 F75.0
G3 X19.0224 Y20.4543 I0.0000 J-0.0458
G3 X19.0682 Y20.4085 I0.0458 J0.0000
G3 X19.1139 Y20.4543 I0.0000 J0.0458
G1   F30.0 Z-0.2500 
G3 X19.0682 Y20.5000 I-0.0458 J0.0000 F75.0
G3 X19.0224 Y20.4543 I0.0000 J-0.0458
G3 X19.0682 Y20.4085 I0.0458 J0.0000
G3 X19.1139 Y20.4543 I0.0000 J0.0458
G1   F30.0 Z-0.3750 
G3 X19.0682 Y20.5000 I-0.0458 J0.0000 F75.0
G3 X19.0224 Y20.4543 I0.0000 J-0.0458
G3 X19.0682 Y20.4085 I0.0458 J0.0000
G3 X19.1139 Y20.4543 I0.0000 J0.0458
G1   F30.0 Z-0.5000 
G3 X19.0682 Y20.5000 I-0.0458 J0.0000 F75.0
G3 X19.0224 Y20.4543 I0.0000 J-0.0458
G3 X19.0682 Y20.4085 I0.0458 J0.0000
G3 X19.1139 Y20.4543 I0.0000 J0.0458
G0  
Z0.2000
G0 X19.0587 Y22.3121

G1   F30.0 Z-0.1250 
G3 X19.1044 Y22.3579 I0.0000 J0.0458 F75.0
G3 X19.0587 Y22.4037 I-0.0458 J0.0000
G3 X19.0129 Y22.3579 I0.0000 J-0.0458
G3 X19.0587 Y22.3121 I0.0458 J0.0000
G1   F30.0 Z-0.2500 
G3 X19.1044 Y22.3579 I0.0000 J0.0458 F75.0
G3 X19.0587 Y22.4037 I-0.0458 J0.0000
G3 X19.0129 Y22.3579 I0.0000 J-0.0458
G3 X19.0587 Y22.3121 I0.0458 J0.0000
G1   F30.0 Z-0.3750 
G3 X19.1044 Y22.3579 I0.0000 J0.0458 F75.0
G3 X19.0587 Y22.4037 I-0.0458 J0.0000
G3 X19.0129 Y22.3579 I0.0000 J-0.0458
G3 X19.0587 Y22.3121 I0.0458 J0.0000
G1   F30.0 Z-0.5000 
G3 X19.1044 Y22.3579 I0.0000 J0.0458 F75.0
G3 X19.0587 Y22.4037 I-0.0458 J0.0000
G3 X19.0129 Y22.3579 I0.0000 J-0.0458
G3 X19.0587 Y22.3121 I0.0458 J0.0000
G0  
Z0.2000
G0 X20.2421 Y22.4563

G1   F30.0 Z-0.1250 
G3 X20.2781 Y22.4204 I0.0359 J0.0000 F75.0
G3 X20.3140 Y22.4563 I0.0000 J0.0359
G3 X20.2781 Y22.4923 I-0.0359 J0.0000
G3 X20.2421 Y22.4563 I0.0000 J-0.0359
G1   F30.0 Z-0.2500 
G3 X20.2781 Y22.4204 I0.0359 J0.0000 F75.0
G3 X20.3140 Y22.4563 I0.0000 J0.0359
G3 X20.2781 Y22.4923 I-0.0359 J0.0000
G3 X20.2421 Y22.4563 I0.0000 J-0.0359
G1   F30.0 Z-0.3750 
G3 X20.2781 Y22.4204 I0.0359 J0.0000 F75.0
G3 X20.3140 Y22.4563 I0.0000 J0.0359
G3 X20.2781 Y22.4923 I-0.0359 J0.0000
G3 X20.2421 Y22.4563 I0.0000 J-0.0359
G1   F30.0 Z-0.5000 
G3 X20.2781 Y22.4204 I0.0359 J0.0000 F75.0
G3 X20.3140 Y22.4563 I0.0000 J0.0359
G3 X20.2781 Y22.4923 I-0.0359 J0.0000
G3 X20.2421 Y22.4563 I0.0000 J-0.0359
G0  
Z0.2000
G0 X20.2781 Y23.2813

G1   F30.0 Z-0.1250 
G3 X20.3140 Y23.3172 I0.0000 J0.0359 F75.0
G3 X20.2781 Y23.3531 I-0.0359 J0.0000
G3 X20.2421 Y23.3172 I0.0000 J-0.0359
G3 X20.2781 Y23.2813 I0.0359 J0.0000
G1   F30.0 Z-0.2500 
G3 X20.3140 Y23.3172 I0.0000 J0.0359 F75.0
G3 X20.2781 Y23.3531 I-0.0359 J0.0000
G3 X20.2421 Y23.3172 I0.0000 J-0.0359
G3 X20.2781 Y23.2813 I0.0359 J0.0000
G1   F30.0 Z-0.3750 
G3 X20.3140 Y23.3172 I0.0000 J0.0359 F75.0
G3 X20.2781 Y23.3531 I-0.0359 J0.0000
G3 X20.2421 Y23.3172 I0.0000 J-0.0359
G3 X20.2781 Y23.2813 I0.0359 J0.0000
G1   F30.0 Z-0.5000 
G3 X20.3140 Y23.3172 I0.0000 J0.0359 F75.0
G3 X20.2781 Y23.3531 I-0.0359 J0.0000
G3 X20.2421 Y23.3172 I0.0000 J-0.0359
G3 X20.2781 Y23.2813 I0.0359 J0.0000
G0  
Z0.2000
G0 X20.9056 Y23.8934

G1   F30.0 Z-0.1250 
G3 X20.9681 Y23.8309 I0.0625 J0.0000 F75.0
G3 X21.0306 Y23.8934 I0.0000 J0.0625
G3 X20.9681 Y23.9559 I-0.0625 J0.0000
G3 X20.9056 Y23.8934 I0.0000 J-0.0625
G1   F30.0 Z-0.2500 
G3 X20.9681 Y23.8309 I0.0625 J0.0000 F75.0
G3 X21.0306 Y23.8934 I0.0000 J0.0625
G3 X20.9681 Y23.9559 I-0.0625 J0.0000
G3 X20.9056 Y23.8934 I0.0000 J-0.0625
G1   F30.0 Z-0.3750 
G3 X20.9681 Y23.8309 I0.0625 J0.0000 F75.0
G3 X21.0306 Y23.8934 I0.0000 J0.0625
G3 X20.9681 Y23.9559 I-0.0625 J0.0000
G3 X20.9056 Y23.8934 I0.0000 J-0.0625
G1   F30.0 Z-0.5000 
G3 X20.9681 Y23.8309 I0.0625 J0.0000 F75.0
G3 X21.0306 Y23.8934 I0.0000 J0.0625
G3 X20.9681 Y23.9559 I-0.0625 J0.0000
G3 X20.9056 Y23.8934 I0.0000 J-0.0625
G0  
Z0.2000
G0 X21.3751 Y23.2634

G1   F30.0 Z-0.1250 
G1  Y22.6729 F75.0  
G3 X21.5060  I0.0655 J0.0000 
G1  Y23.2634   
G3 X21.3751  I-0.0655 J0.0000 
G1   F30.0 Z-0.2500 
G1  Y22.6729 F75.0  
G3 X21.5060  I0.0655 J0.0000 
G1  Y23.2634   
G3 X21.3751  I-0.0655 J0.0000 
G1   F30.0 Z-0.3750 
G1  Y22.6729 F75.0  
G3 X21.5060  I0.0655 J0.0000 
G1  Y23.2634   
G3 X21.3751  I-0.0655 J0.0000 
G1   F30.0 Z-0.5000 
G1  Y22.6729 F75.0  
G3 X21.5060  I0.0655 J0.0000 
G1  Y23.2634   
G3 X21.3751  I-0.0655 J0.0000 
G0  
Z0.2000
G0 X21.3614 Y30.0971

G1   F30.0 Z-0.1250 
G3 X21.4012 Y30.1370 I0.0000 J0.0399 F75.0
G3 X21.3614 Y30.1768 I-0.0399 J0.0000
G3 X21.3215 Y30.1370 I0.0000 J-0.0399
G3 X21.3614 Y30.0971 I0.0399 J0.0000
G1   F30.0 Z-0.2500 
G3 X21.4012 Y30.1370 I0.0000 J0.0399 F75.0
G3 X21.3614 Y30.1768 I-0.0399 J0.0000
G3 X21.3215 Y30.1370 I0.0000 J-0.0399
G3 X21.3614 Y30.0971 I0.0399 J0.0000
G1   F30.0 Z-0.3750 
G3 X21.4012 Y30.1370 I0.0000 J0.0399 F75.0
G3 X21.3614 Y30.1768 I-0.0399 J0.0000
G3 X21.3215 Y30.1370 I0.0000 J-0.0399
G3 X21.3614 Y30.0971 I0.0399 J0.0000
G1   F30.0 Z-0.5000 
G3 X21.4012 Y30.1370 I0.0000 J0.0399 F75.0
G3 X21.3614 Y30.1768 I-0.0399 J0.0000
G3 X21.3215 Y30.1370 I0.0000 J-0.0399
G3 X21.3614 Y30.0971 I0.0399 J0.0000
G0  
Z0.2000
G0 X20.7475 Y30.1370

G1   F30.0 Z-0.1250 
G3 X20.7076 Y30.1768 I-0.0399 J0.0000 F75.0
G3 X20.6678 Y30.1370 I0.0000 J-0.0399
G3 X20.7076 Y30.0971 I0.0399 J0.0000
G3 X20.7475 Y30.1370 I0.0000 J0.0399
G1   F30.0 Z-0.2500 
G3 X20.7076 Y30.1768 I-0.0399 J0.0000 F75.0
G3 X20.6678 Y30.1370 I0.0000 J-0.0399
G3 X20.7076 Y30.0971 I0.0399 J0.0000
G3 X20.7475 Y30.1370 I0.0000 J0.0399
G1   F30.0 Z-0.3750 
G3 X20.7076 Y30.1768 I-0.0399 J0.0000 F75.0
G3 X20.6678 Y30.1370 I0.0000 J-0.0399
G3 X20.7076 Y30.0971 I0.0399 J0.0000
G3 X20.7475 Y30.1370 I0.0000 J0.0399
G1   F30.0 Z-0.5000 
G3 X20.7076 Y30.1768 I-0.0399 J0.0000 F75.0
G3 X20.6678 Y30.1370 I0.0000 J-0.0399
G3 X20.7076 Y30.0971 I0.0399 J0.0000
G3 X20.7475 Y30.1370 I0.0000 J0.0399
G0  
Z0.2000
G0 X21.3614 Y31.2782

G1   F30.0 Z-0.1250 
G3 X21.4012 Y31.3181 I0.0000 J0.0399 F75.0
G3 X21.3614 Y31.3579 I-0.0399 J0.0000
G3 X21.3215 Y31.3181 I0.0000 J-0.0399
G3 X21.3614 Y31.2782 I0.0399 J0.0000
G1   F30.0 Z-0.2500 
G3 X21.4012 Y31.3181 I0.0000 J0.0399 F75.0
G3 X21.3614 Y31.3579 I-0.0399 J0.0000
G3 X21.3215 Y31.3181 I0.0000 J-0.0399
G3 X21.3614 Y31.2782 I0.0399 J0.0000
G1   F30.0 Z-0.3750 
G3 X21.4012 Y31.3181 I0.0000 J0.0399 F75.0
G3 X21.3614 Y31.3579 I-0.0399 J0.0000
G3 X21.3215 Y31.3181 I0.0000 J-0.0399
G3 X21.3614 Y31.2782 I0.0399 J0.0000
G1   F30.0 Z-0.5000 
G3 X21.4012 Y31.3181 I0.0000 J0.0399 F75.0
G3 X21.3614 Y31.3579 I-0.0399 J0.0000
G3 X21.3215 Y31.3181 I0.0000 J-0.0399
G3 X21.3614 Y31.2782 I0.0399 J0.0000
G0  
Z0.2000
G0  Y32.0621

G1   F30.0 Z-0.1250 
G3 X21.4012 Y32.1020 I0.0000 J0.0399 F75.0
G3 X21.3614 Y32.1419 I-0.0399 J0.0000
G3 X21.3215 Y32.1020 I0.0000 J-0.0399
G3 X21.3614 Y32.0621 I0.0399 J0.0000
G1   F30.0 Z-0.2500 
G3 X21.4012 Y32.1020 I0.0000 J0.0399 F75.0
G3 X21.3614 Y32.1419 I-0.0399 J0.0000
G3 X21.3215 Y32.1020 I0.0000 J-0.0399
G3 X21.3614 Y32.0621 I0.0399 J0.0000
G1   F30.0 Z-0.3750 
G3 X21.4012 Y32.1020 I0.0000 J0.0399 F75.0
G3 X21.3614 Y32.1419 I-0.0399 J0.0000
G3 X21.3215 Y32.1020 I0.0000 J-0.0399
G3 X21.3614 Y32.0621 I0.0399 J0.0000
G1   F30.0 Z-0.5000 
G3 X21.4012 Y32.1020 I0.0000 J0.0399 F75.0
G3 X21.3614 Y32.1419 I-0.0399 J0.0000
G3 X21.3215 Y32.1020 I0.0000 J-0.0399
G3 X21.3614 Y32.0621 I0.0399 J0.0000
G0  
Z0.2000
G0  Y32.8461

G1   F30.0 Z-0.1250 
G3 X21.4012 Y32.8860 I0.0000 J0.0399 F75.0
G3 X21.3614 Y32.9258 I-0.0399 J0.0000
G3 X21.3215 Y32.8860 I0.0000 J-0.0399
G3 X21.3614 Y32.8461 I0.0399 J0.0000
G1   F30.0 Z-0.2500 
G3 X21.4012 Y32.8860 I0.0000 J0.0399 F75.0
G3 X21.3614 Y32.9258 I-0.0399 J0.0000
G3 X21.3215 Y32.8860 I0.0000 J-0.0399
G3 X21.3614 Y32.8461 I0.0399 J0.0000
G1   F30.0 Z-0.3750 
G3 X21.4012 Y32.8860 I0.0000 J0.0399 F75.0
G3 X21.3614 Y32.9258 I-0.0399 J0.0000
G3 X21.3215 Y32.8860 I0.0000 J-0.0399
G3 X21.3614 Y32.8461 I0.0399 J0.0000
G1   F30.0 Z-0.5000 
G3 X21.4012 Y32.8860 I0.0000 J0.0399 F75.0
G3 X21.3614 Y32.9258 I-0.0399 J0.0000
G3 X21.3215 Y32.8860 I0.0000 J-0.0399
G3 X21.3614 Y32.8461 I0.0399 J0.0000
G0  
Z0.2000
G0  Y34.0272

G1   F30.0 Z-0.1250 
G3 X21.4012 Y34.0671 I0.0000 J0.0399 F75.0
G3 X21.3614 Y34.1069 I-0.0399 J0.0000
G3 X21.3215 Y34.0671 I0.0000 J-0.0399
G3 X21.3614 Y34.0272 I0.0399 J0.0000
G1   F30.0 Z-0.2500 
G3 X21.4012 Y34.0671 I0.0000 J0.0399 F75.0
G3 X21.3614 Y34.1069 I-0.0399 J0.0000
G3 X21.3215 Y34.0671 I0.0000 J-0.0399
G3 X21.3614 Y34.0272 I0.0399 J0.0000
G1   F30.0 Z-0.3750 
G3 X21.4012 Y34.0671 I0.0000 J0.0399 F75.0
G3 X21.3614 Y34.1069 I-0.0399 J0.0000
G3 X21.3215 Y34.0671 I0.0000 J-0.0399
G3 X21.3614 Y34.0272 I0.0399 J0.0000
G1   F30.0 Z-0.5000 
G3 X21.4012 Y34.0671 I0.0000 J0.0399 F75.0
G3 X21.3614 Y34.1069 I-0.0399 J0.0000
G3 X21.3215 Y34.0671 I0.0000 J-0.0399
G3 X21.3614 Y34.0272 I0.0399 J0.0000
G0  
Z0.2000
G0 X20.7276 Y34.0671

G1   F30.0 Z-0.1250 
G3 X20.6878 Y34.1069 I-0.0399 J0.0000 F75.0
G3 X20.6479 Y34.0671 I0.0000 J-0.0399
G3 X20.6878 Y34.0272 I0.0399 J0.0000
G3 X20.7276 Y34.0671 I0.0000 J0.0399
G1   F30.0 Z-0.2500 
G3 X20.6878 Y34.1069 I-0.0399 J0.0000 F75.0
G3 X20.6479 Y34.0671 I0.0000 J-0.0399
G3 X20.6878 Y34.0272 I0.0399 J0.0000
G3 X20.7276 Y34.0671 I0.0000 J0.0399
G1   F30.0 Z-0.3750 
G3 X20.6878 Y34.1069 I-0.0399 J0.0000 F75.0
G3 X20.6479 Y34.0671 I0.0000 J-0.0399
G3 X20.6878 Y34.0272 I0.0399 J0.0000
G3 X20.7276 Y34.0671 I0.0000 J0.0399
G1   F30.0 Z-0.5000 
G3 X20.6878 Y34.1069 I-0.0399 J0.0000 F75.0
G3 X20.6479 Y34.0671 I0.0000 J-0.0399
G3 X20.6878 Y34.0272 I0.0399 J0.0000
G3 X20.7276 Y34.0671 I0.0000 J0.0399
G0  
Z0.2000
G0 X20.9681 Y40.2482

G1   F30.0 Z-0.1250 
G3 X21.0306 Y40.3107 I0.0000 J0.0625 F75.0
G3 X20.9681 Y40.3732 I-0.0625 J0.0000
G3 X20.9056 Y40.3107 I0.0000 J-0.0625
G3 X20.9681 Y40.2482 I0.0625 J0.0000
G1   F30.0 Z-0.2500 
G3 X21.0306 Y40.3107 I0.0000 J0.0625 F75.0
G3 X20.9681 Y40.3732 I-0.0625 J0.0000
G3 X20.9056 Y40.3107 I0.0000 J-0.0625
G3 X20.9681 Y40.2482 I0.0625 J0.0000
G1   F30.0 Z-0.3750 
G3 X21.0306 Y40.3107 I0.0000 J0.0625 F75.0
G3 X20.9681 Y40.3732 I-0.0625 J0.0000
G3 X20.9056 Y40.3107 I0.0000 J-0.0625
G3 X20.9681 Y40.2482 I0.0625 J0.0000
G1   F30.0 Z-0.5000 
G3 X21.0306 Y40.3107 I0.0000 J0.0625 F75.0
G3 X20.9681 Y40.3732 I-0.0625 J0.0000
G3 X20.9056 Y40.3107 I0.0000 J-0.0625
G3 X20.9681 Y40.2482 I0.0625 J0.0000
G0  
Z0.2000
G0 X21.3751 Y40.9406

G1   F30.0 Z-0.1250 
G3 X21.5060  I0.0655 J0.0000 F75.0
G1  Y41.5311   
G3 X21.3751  I-0.0655 J0.0000 
G1  Y40.9406   
G1   F30.0 Z-0.2500 
G3 X21.5060  I0.0655 J0.0000 F75.0
G1  Y41.5311   
G3 X21.3751  I-0.0655 J0.0000 
G1  Y40.9406   
G1   F30.0 Z-0.3750 
G3 X21.5060  I0.0655 J0.0000 F75.0
G1  Y41.5311   
G3 X21.3751  I-0.0655 J0.0000 
G1  Y40.9406   
G1   F30.0 Z-0.5000 
G3 X21.5060  I0.0655 J0.0000 F75.0
G1  Y41.5311   
G3 X21.3751  I-0.0655 J0.0000 
G1  Y40.9406   
G0  
Z0.2000
G0 X20.3140 Y40.8868

G1   F30.0 Z-0.1250 
G3 X20.2781 Y40.9228 I-0.0359 J0.0000 F75.0
G3 X20.2421 Y40.8868 I0.0000 J-0.0359
G3 X20.2781 Y40.8509 I0.0359 J0.0000
G3 X20.3140 Y40.8868 I0.0000 J0.0359
G1   F30.0 Z-0.2500 
G3 X20.2781 Y40.9228 I-0.0359 J0.0000 F75.0
G3 X20.2421 Y40.8868 I0.0000 J-0.0359
G3 X20.2781 Y40.8509 I0.0359 J0.0000
G3 X20.3140 Y40.8868 I0.0000 J0.0359
G1   F30.0 Z-0.3750 
G3 X20.2781 Y40.9228 I-0.0359 J0.0000 F75.0
G3 X20.2421 Y40.8868 I0.0000 J-0.0359
G3 X20.2781 Y40.8509 I0.0359 J0.0000
G3 X20.3140 Y40.8868 I0.0000 J0.0359
G1   F30.0 Z-0.5000 
G3 X20.2781 Y40.9228 I-0.0359 J0.0000 F75.0
G3 X20.2421 Y40.8868 I0.0000 J-0.0359
G3 X20.2781 Y40.8509 I0.0359 J0.0000
G3 X20.3140 Y40.8868 I0.0000 J0.0359
G0  
Z0.2000
G0 X20.2781 Y41.7117

G1   F30.0 Z-0.1250 
G3 X20.3140 Y41.7477 I0.0000 J0.0359 F75.0
G3 X20.2781 Y41.7836 I-0.0359 J0.0000
G3 X20.2421 Y41.7477 I0.0000 J-0.0359
G3 X20.2781 Y41.7117 I0.0359 J0.0000
G1   F30.0 Z-0.2500 
G3 X20.3140 Y41.7477 I0.0000 J0.0359 F75.0
G3 X20.2781 Y41.7836 I-0.0359 J0.0000
G3 X20.2421 Y41.7477 I0.0000 J-0.0359
G3 X20.2781 Y41.7117 I0.0359 J0.0000
G1   F30.0 Z-0.3750 
G3 X20.3140 Y41.7477 I0.0000 J0.0359 F75.0
G3 X20.2781 Y41.7836 I-0.0359 J0.0000
G3 X20.2421 Y41.7477 I0.0000 J-0.0359
G3 X20.2781 Y41.7117 I0.0359 J0.0000
G1   F30.0 Z-0.5000 
G3 X20.3140 Y41.7477 I0.0000 J0.0359 F75.0
G3 X20.2781 Y41.7836 I-0.0359 J0.0000
G3 X20.2421 Y41.7477 I0.0000 J-0.0359
G3 X20.2781 Y41.7117 I0.0359 J0.0000
G0  
Z0.2000
G0 X19.1044 Y41.8461

G1   F30.0 Z-0.1250 
G3 X19.0587 Y41.8919 I-0.0458 J0.0000 F75.0
G3 X19.0129 Y41.8461 I0.0000 J-0.0458
G3 X19.0587 Y41.8003 I0.0458 J0.0000
G3 X19.1044 Y41.8461 I0.0000 J0.0458
G1   F30.0 Z-0.2500 
G3 X19.0587 Y41.8919 I-0.0458 J0.0000 F75.0
G3 X19.0129 Y41.8461 I0.0000 J-0.0458
G3 X19.0587 Y41.8003 I0.0458 J0.0000
G3 X19.1044 Y41.8461 I0.0000 J0.0458
G1   F30.0 Z-0.3750 
G3 X19.0587 Y41.8919 I-0.0458 J0.0000 F75.0
G3 X19.0129 Y41.8461 I0.0000 J-0.0458
G3 X19.0587 Y41.8003 I0.0458 J0.0000
G3 X19.1044 Y41.8461 I0.0000 J0.0458
G1   F30.0 Z-0.5000 
G3 X19.0587 Y41.8919 I-0.0458 J0.0000 F75.0
G3 X19.0129 Y41.8461 I0.0000 J-0.0458
G3 X19.0587 Y41.8003 I0.0458 J0.0000
G3 X19.1044 Y41.8461 I0.0000 J0.0458
G0  
Z0.2000
G0 X11.3849 Y40.3107

G1   F30.0 Z-0.1250 
G3 X11.3224 Y40.3732 I-0.0625 J0.0000 F75.0
G3 X11.2599 Y40.3107 I0.0000 J-0.0625
G3 X11.3224 Y40.2482 I0.0625 J0.0000
G3 X11.3849 Y40.3107 I0.0000 J0.0625
G1   F30.0 Z-0.2500 
G3 X11.3224 Y40.3732 I-0.0625 J0.0000 F75.0
G3 X11.2599 Y40.3107 I0.0000 J-0.0625
G3 X11.3224 Y40.2482 I0.0625 J0.0000
G3 X11.3849 Y40.3107 I0.0000 J0.0625
G1   F30.0 Z-0.3750 
G3 X11.3224 Y40.3732 I-0.0625 J0.0000 F75.0
G3 X11.2599 Y40.3107 I0.0000 J-0.0625
G3 X11.3224 Y40.2482 I0.0625 J0.0000
G3 X11.3849 Y40.3107 I0.0000 J0.0625
G1   F30.0 Z-0.5000 
G3 X11.3224 Y40.3732 I-0.0625 J0.0000 F75.0
G3 X11.2599 Y40.3107 I0.0000 J-0.0625
G3 X11.3224 Y40.2482 I0.0625 J0.0000
G3 X11.3849 Y40.3107 I0.0000 J0.0625
G0  
Z0.2000
G0 X1.7393 

G1   F30.0 Z-0.1250 
G3 X1.6768 Y40.3732 I-0.0625 J0.0000 F75.0
G3 X1.6143 Y40.3107 I0.0000 J-0.0625
G3 X1.6768 Y40.2482 I0.0625 J0.0000
G3 X1.7393 Y40.3107 I0.0000 J0.0625
G1   F30.0 Z-0.2500 
G3 X1.6768 Y40.3732 I-0.0625 J0.0000 F75.0
G3 X1.6143 Y40.3107 I0.0000 J-0.0625
G3 X1.6768 Y40.2482 I0.0625 J0.0000
G3 X1.7393 Y40.3107 I0.0000 J0.0625
G1   F30.0 Z-0.3750 
G3 X1.6768 Y40.3732 I-0.0625 J0.0000 F75.0
G3 X1.6143 Y40.3107 I0.0000 J-0.0625
G3 X1.6768 Y40.2482 I0.0625 J0.0000
G3 X1.7393 Y40.3107 I0.0000 J0.0625
G1   F30.0 Z-0.5000 
G3 X1.6768 Y40.3732 I-0.0625 J0.0000 F75.0
G3 X1.6143 Y40.3107 I0.0000 J-0.0625
G3 X1.6768 Y40.2482 I0.0625 J0.0000
G3 X1.7393 Y40.3107 I0.0000 J0.0625
G0  
Z0.2000
G0 X0.9878 Y41.8003

G1   F30.0 Z-0.1250 
G3 X1.0336 Y41.8461 I0.0000 J0.0458 F75.0
G3 X0.9878 Y41.8919 I-0.0458 J0.0000
G3 X0.9420 Y41.8461 I0.0000 J-0.0458
G3 X0.9878 Y41.8003 I0.0458 J0.0000
G1   F30.0 Z-0.2500 
G3 X1.0336 Y41.8461 I0.0000 J0.0458 F75.0
G3 X0.9878 Y41.8919 I-0.0458 J0.0000
G3 X0.9420 Y41.8461 I0.0000 J-0.0458
G3 X0.9878 Y41.8003 I0.0458 J0.0000
G1   F30.0 Z-0.3750 
G3 X1.0336 Y41.8461 I0.0000 J0.0458 F75.0
G3 X0.9878 Y41.8919 I-0.0458 J0.0000
G3 X0.9420 Y41.8461 I0.0000 J-0.0458
G3 X0.9878 Y41.8003 I0.0458 J0.0000
G1   F30.0 Z-0.5000 
G3 X1.0336 Y41.8461 I0.0000 J0.0458 F75.0
G3 X0.9878 Y41.8919 I-0.0458 J0.0000
G3 X0.9420 Y41.8461 I0.0000 J-0.0458
G3 X0.9878 Y41.8003 I0.0458 J0.0000
G0  
Z0.2000
G0 X1.6768 Y23.9559

G1   F30.0 Z-0.1250 
G3 X1.6143 Y23.8934 I0.0000 J-0.0625 F75.0
G3 X1.6768 Y23.8309 I0.0625 J0.0000
G3 X1.7393 Y23.8934 I0.0000 J0.0625
G3 X1.6768 Y23.9559 I-0.0625 J0.0000
G1   F30.0 Z-0.2500 
G3 X1.6143 Y23.8934 I0.0000 J-0.0625 F75.0
G3 X1.6768 Y23.8309 I0.0625 J0.0000
G3 X1.7393 Y23.8934 I0.0000 J0.0625
G3 X1.6768 Y23.9559 I-0.0625 J0.0000
G1   F30.0 Z-0.3750 
G3 X1.6143 Y23.8934 I0.0000 J-0.0625 F75.0
G3 X1.6768 Y23.8309 I0.0625 J0.0000
G3 X1.7393 Y23.8934 I0.0000 J0.0625
G3 X1.6768 Y23.9559 I-0.0625 J0.0000
G1   F30.0 Z-0.5000 
G3 X1.6143 Y23.8934 I0.0000 J-0.0625 F75.0
G3 X1.6768 Y23.8309 I0.0625 J0.0000
G3 X1.7393 Y23.8934 I0.0000 J0.0625
G3 X1.6768 Y23.9559 I-0.0625 J0.0000
G0  
Z0.2000
G0 X0.9878 Y22.4037

G1   F30.0 Z-0.1250 
G3 X0.9420 Y22.3579 I0.0000 J-0.0458 F75.0
G3 X0.9878 Y22.3121 I0.0458 J0.0000
G3 X1.0336 Y22.3579 I0.0000 J0.0458
G3 X0.9878 Y22.4037 I-0.0458 J0.0000
G1   F30.0 Z-0.2500 
G3 X0.9420 Y22.3579 I0.0000 J-0.0458 F75.0
G3 X0.9878 Y22.3121 I0.0458 J0.0000
G3 X1.0336 Y22.3579 I0.0000 J0.0458
G3 X0.9878 Y22.4037 I-0.0458 J0.0000
G1   F30.0 Z-0.3750 
G3 X0.9420 Y22.3579 I0.0000 J-0.0458 F75.0
G3 X0.9878 Y22.3121 I0.0458 J0.0000
G3 X1.0336 Y22.3579 I0.0000 J0.0458
G3 X0.9878 Y22.4037 I-0.0458 J0.0000
G1   F30.0 Z-0.5000 
G3 X0.9420 Y22.3579 I0.0000 J-0.0458 F75.0
G3 X0.9878 Y22.3121 I0.0458 J0.0000
G3 X1.0336 Y22.3579 I0.0000 J0.0458
G3 X0.9878 Y22.4037 I-0.0458 J0.0000
G0  
Z0.2000
G0 X0.9973 Y20.5000

G1   F30.0 Z-0.1250 
G3 X0.9515 Y20.4543 I0.0000 J-0.0458 F75.0
G3 X0.9973 Y20.4085 I0.0458 J0.0000
G3 X1.0431 Y20.4543 I0.0000 J0.0458
G3 X0.9973 Y20.5000 I-0.0458 J0.0000
G1   F30.0 Z-0.2500 
G3 X0.9515 Y20.4543 I0.0000 J-0.0458 F75.0
G3 X0.9973 Y20.4085 I0.0458 J0.0000
G3 X1.0431 Y20.4543 I0.0000 J0.0458
G3 X0.9973 Y20.5000 I-0.0458 J0.0000
G1   F30.0 Z-0.3750 
G3 X0.9515 Y20.4543 I0.0000 J-0.0458 F75.0
G3 X0.9973 Y20.4085 I0.0458 J0.0000
G3 X1.0431 Y20.4543 I0.0000 J0.0458
G3 X0.9973 Y20.5000 I-0.0458 J0.0000
G1   F30.0 Z-0.5000 
G3 X0.9515 Y20.4543 I0.0000 J-0.0458 F75.0
G3 X0.9973 Y20.4085 I0.0458 J0.0000
G3 X1.0431 Y20.4543 I0.0000 J0.0458
G3 X0.9973 Y20.5000 I-0.0458 J0.0000
G0  
Z0.2000
G0 X1.6863 Y18.9813

G1   F30.0 Z-0.1250 
G3 X1.6238 Y18.9188 I0.0000 J-0.0625 F75.0
G3 X1.6863 Y18.8563 I0.0625 J0.0000
G3 X1.7488 Y18.9188 I0.0000 J0.0625
G3 X1.6863 Y18.9813 I-0.0625 J0.0000
G1   F30.0 Z-0.2500 
G3 X1.6238 Y18.9188 I0.0000 J-0.0625 F75.0
G3 X1.6863 Y18.8563 I0.0625 J0.0000
G3 X1.7488 Y18.9188 I0.0000 J0.0625
G3 X1.6863 Y18.9813 I-0.0625 J0.0000
G1   F30.0 Z-0.3750 
G3 X1.6238 Y18.9188 I0.0000 J-0.0625 F75.0
G3 X1.6863 Y18.8563 I0.0625 J0.0000
G3 X1.7488 Y18.9188 I0.0000 J0.0625
G3 X1.6863 Y18.9813 I-0.0625 J0.0000
G1   F30.0 Z-0.5000 
G3 X1.6238 Y18.9188 I0.0000 J-0.0625 F75.0
G3 X1.6863 Y18.8563 I0.0625 J0.0000
G3 X1.7488 Y18.9188 I0.0000 J0.0625
G3 X1.6863 Y18.9813 I-0.0625 J0.0000
G0  
Z0.2000
G0 X11.2695 Y18.9188

G1   F30.0 Z-0.1250 
G3 X11.3320 Y18.8563 I0.0625 J0.0000 F75.0
G3 X11.3945 Y18.9188 I0.0000 J0.0625
G3 X11.3320 Y18.9813 I-0.0625 J0.0000
G3 X11.2695 Y18.9188 I0.0000 J-0.0625
G1   F30.0 Z-0.2500 
G3 X11.3320 Y18.8563 I0.0625 J0.0000 F75.0
G3 X11.3945 Y18.9188 I0.0000 J0.0625
G3 X11.3320 Y18.9813 I-0.0625 J0.0000
G3 X11.2695 Y18.9188 I0.0000 J-0.0625
G1   F30.0 Z-0.3750 
G3 X11.3320 Y18.8563 I0.0625 J0.0000 F75.0
G3 X11.3945 Y18.9188 I0.0000 J0.0625
G3 X11.3320 Y18.9813 I-0.0625 J0.0000
G3 X11.2695 Y18.9188 I0.0000 J-0.0625
G1   F30.0 Z-0.5000 
G3 X11.3320 Y18.8563 I0.0625 J0.0000 F75.0
G3 X11.3945 Y18.9188 I0.0000 J0.0625
G3 X11.3320 Y18.9813 I-0.0625 J0.0000
G3 X11.2695 Y18.9188 I0.0000 J-0.0625
G0  
Z0.2000
G0 X11.3224 Y23.8309

G1   F30.0 Z-0.1250 
G3 X11.3849 Y23.8934 I0.0000 J0.0625 F75.0
G3 X11.3224 Y23.9559 I-0.0625 J0.0000
G3 X11.2599 Y23.8934 I0.0000 J-0.0625
G3 X11.3224 Y23.8309 I0.0625 J0.0000
G1   F30.0 Z-0.2500 
G3 X11.3849 Y23.8934 I0.0000 J0.0625 F75.0
G3 X11.3224 Y23.9559 I-0.0625 J0.0000
G3 X11.2599 Y23.8934 I0.0000 J-0.0625
G3 X11.3224 Y23.8309 I0.0625 J0.0000
G1   F30.0 Z-0.3750 
G3 X11.3849 Y23.8934 I0.0000 J0.0625 F75.0
G3 X11.3224 Y23.9559 I-0.0625 J0.0000
G3 X11.2599 Y23.8934 I0.0000 J-0.0625
G3 X11.3224 Y23.8309 I0.0625 J0.0000
G1   F30.0 Z-0.5000 
G3 X11.3849 Y23.8934 I0.0000 J0.0625 F75.0
G3 X11.3224 Y23.9559 I-0.0625 J0.0000
G3 X11.2599 Y23.8934 I0.0000 J-0.0625
G3 X11.3224 Y23.8309 I0.0625 J0.0000
G0  
Z0.2000
G0 Z0.8000
G28
M30
%
